!!!!SEGMENT: pl-kj--bj-muz-10207-iii-2_zarebski-juliusz--passion-op-5-no-2.krn
!!!cenid: 18xx:3558
!!!COM: Zarębski, Juliusz
!!!COM-rismID: pe30020631
!!!CDT: 1854/02/28-1885/09/15
!!!CNT:
!!!OTL: Passion op. 5 no. 2
!!!PDT: 1881
!!!AGN:
!!!SMS-siglum: PL-Kj
!!!SMS-shelfmark: BJ Muz. 10207 III 2
!!!SMS-shelfwork: W
!!!SMS-variant:
!!!SMS-altvar:
!!!NIFC-rismSourceID:
!!!NIFC-rismChildID:
!!!NIFC-islandoraID: none
!!!URL-pdf-islandora:
!!!URL-scan: https://polona.pl/item/deux-morceaux-en-forme-de-mazurka-reverie-et-passion-pour-piano-a-quatre-mains-op,ODAyMDY3Mjc/2 @EN{Scan on Polona} @PL{Skany w portalu Polona}
!!!ONB-nifc:
!!!AIN: 2 empty
!!!key:
**kern	**kern	**dynam	**kern	**kern	**fing	**dynam
*part3	*part3	*part3	*part1	*part1	*part1	*part1
*staff4	*staff3	*	*staff2	*staff1	*	*
*Iempty	*Iempty	*	*Iempty	*Iempty	*	*
*	*I"Piano SECONDO.	*	*	*I"Piano PRIMO.	*	*
*	*I'pf	*	*	*I'pf	*	*
*	*ICklav	*	*	*ICklav	*	*
*clefF4	*clefF4	*	*clefG2	*clefG2	*	*
*k[f#]	*k[f#]	*	*k[f#]	*k[f#]	*	*
*G:	*G:	*	*G:	*G:	*	*
*M3/4	*M3/4	*	*M3/4	*M3/4	*	*
=1	=1	=1	=1	=1	=1	=1
!	!LO:TX:a:B:t=Allegro molto. [half-dot]=69.	!	!	!LO:TX:a:B:t=Allegro molto. [half-dot]=69.	!	!
4D 4DD'/	4c 4A'\	f	4f# 4e'/	4ee'\	.	f
2D 2DD^>/	2c 2A^\	sf	4f#^>/	(8dd^>/L	.	sf
.	.	.	.	8cc/	.	.
*	*	*	*	*	*below	*
!	!	!	!	!LO:TX:t=m.g.	!	!
.	.	.	4r	8e/	3	.
.	.	.	.	8f#/J	2	.
=2	=2	=2	=2	=2	=2	=2
4D 4GG^>/	4d 4B^\	.	4r	8g/L)	1	.
.	.	.	.	16r	.	.
.	.	.	.	(16a/Jk	.	.
4r	4r	.	4r	8b'\)	.	.
.	.	.	.	8r	.	.
4C#X 4CC#X'/	4G'\	p	4e 4B'/	4g'/	.	p
=3	=3	=3	=3	=3	=3	=3
!	!	!	!	!LO:TX:b:BI:t=cresc._:problem=dynamics with extention lines	!	!
4r	4r	.	4r	8a/L	.	<
.	.	.	.	16r	.	.
.	.	.	.	(16b/Jk	.	.
4r	4r	.	4r	8ccn'\)	.	.
.	.	.	.	8r	.	.
!	!LO:TX:b:BI:t=cresc._:problem=dynamics with extention lines	!	!	!	!	!
4Cn 4CCn'/	4A'\	<	4f# 4d'/	4a'/	.	.
=4	=4	=4	=4	=4	=4	=4
4r	4r	.	4r	8b\L	.	.
.	.	.	.	16r	.	.
.	.	.	.	(16cc\Jk	.	.
4r	4r	.	4r	8dd'\)	.	.
.	.	.	.	8r	.	.
4BB 4BBB'/	4B 4G'\	.	4g 4d'/	4b'\	.	.
=5	=5	=5	=5	=5	=5	=5
4r	4r	.	4r	8cc#X\L	.	.
.	.	.	.	16r	.	.
.	.	.	.	(16dd\Jk	.	.
4r	4r	[	4r	8ee'\)	.	.
.	.	.	.	8r	.	.
4AA 4AAA'/	4e 4c#X 4G'\	f	4g'/	4gg 4cc#'\	.	[[
=6	=6	=6	=6	=6	=6	=6
(2BB 2BBB^>/	4r	.	(2g^>/	4.gg 4.dd^\	.	f <
.	(4d 4D^\	>	.	.	.	.
.	.	.	.	(8dd\L	.	.
4AA#X 4AAA#X'/)	4c#X 4G'\)	]]	8f#'^>/L)	8ff# 8cc#X 8g'^\)	.	.
.	.	.	16r	16r	.	[
.	.	.	16e/Jk	16ee\Jk	.	.
!LO:LB:g=original	!	!	!LO:LB:g=original	!	!	!
=7	=7	=7	=7	=7	=7	=7
(2BB 2BBB^>/	4r	.	4e^>/	(4.ee 4.g\	.	<
.	(4d 4D^\	>	4r	.	.	.
.	.	.	.	8dd\L	.	.
4AA#X 4AAA#X'/)	4c#X 4G'\)	]]	8f#'^>/L	8ff# 8cc#X 8g'^\)	.	.
.	.	.	16r	16r	.	[
.	.	.	16e/Jk	16ee\Jk	.	.
=8	=8	=8	=8	=8	=8	=8
(2BB 2BBB^>/	4r	.	4e^>/	(4.ee 4.g\	.	<
.	(4d 4D^\	>	4r	.	.	.
.	.	.	.	8dd\L	.	.
4AA#X 4AAA#X'/)	4c#X 4G'\)	]]	8f#'^>/L	8ff# 8cc#X 8g'^\)	.	.
.	.	.	16r	16r	.	[
.	.	.	16e/Jk	16ee\Jk	.	.
=9	=9	=9	=9	=9	=9	=9
4D 4DD'/	4c 4A'\	.	4e'/	(<4ee'\	.	.
2D 2DD^>/	2c 2A^\	sf	4f#^>/	(8dd^>/L	.	.
.	.	.	.	8ccn/	.	.
!	!	!	!	!LO:TX:a:t=m.g.	!	!
.	.	.	4r	8e/)	.	.
.	.	.	.	8f#/J	.	.
=10	=10	=10	=10	=10	=10	=10
4D 4GG^>/	4d 4B^\	.	4r	8g/L)	.	.
.	.	.	.	16r	.	.
.	.	.	.	(16a/Jk	.	.
4r	4r	.	4r	8b'\)	.	.
.	.	.	.	8r	.	.
4E 4EE'/	4G'\	p	4e 4B'/	4g'/	.	p
=11	=11	=11	=11	=11	=11	=11
!	!	!	!	!LO:TX:b:BI:t=cresc._:problem=dynamics with extention lines	!	!
4r	4r	.	4r	8a/L	.	<
.	.	.	.	16r	.	.
.	.	.	.	(16b/Jk	.	.
4r	4r	.	4r	8cc'\)	.	.
.	.	.	.	8r	.	.
!	!LO:TX:b:BI:t=cresc._:problem=dynamics with extention lines	!	!	!	!	!
4D#X 4DD#X'/	4A 4F#'\	<	4f# 4c'/	4a'/	.	.
=12	=12	=12	=12	=12	=12	=12
4r	4r	.	4r	8b\L	.	.
.	.	.	.	16r	.	.
.	.	.	.	(16cc\Jk	.	.
4r	4r	.	4r	8ddn'\)	.	.
.	.	.	.	8r	.	.
4Dn 4DDn'/	4B 4G'\	[[	4g 4d'/	4b'\	.	[[
!	!	!	!LO:LB:g=original	!	!	!
=13	=13	=13	=13	=13	=13	=13
4r	4r	.	4r	8cc#X\L	.	f <
.	.	.	.	16r	.	.
.	.	.	.	(16dd\Jk	.	.
4r	4r	.	4r	8ee'\)	.	.
.	.	.	.	8r	.	.
4E 4EE'/	4c#X 4A 4G'\	f	4cc#X 4g'/	4gg'\	.	[[
!LO:LB:g=original	!	!	!	!	!	!
=14	=14	=14	=14	=14	=14	=14
2D 2DD^>/	2d 2B 2G^\	sf	(4b^\	(4bb^\	.	sf
.	.	.	8g'/)	8gg'\L)	.	.
.	.	.	8r	16r	.	.
.	.	.	.	(16dd\K	.	.
4Cn 4CCn/	4d 4A\	.	8f#'/L	8ff#'\)	.	.
.	.	.	16r	16r	.	.
.	.	.	(16a/Jk	(16aa\Jk	.	.
=15	=15	=15	=15	=15	=15	=15
2BB 2BBB^>/	2d 2G^\	sf	4g^>/)	4gg 4dd^\	.	sf
.	.	.	4r	8dd'\L)	.	.
.	.	.	.	16r	.	.
.	.	.	.	(16g\K	.	.
4AA#X 4AAA#X/	4G\	.	8c#X'/L	8cc#X'\)	.	.
.	.	.	16r	16r	.	.
.	.	.	16e/Jk	16ee\Jk	.	.
=16	=16	=16	=16	=16	=16	=16
4AA 4AAA'/	4c#X 4G'\	.	4e'^>/	4ee'^\	.	.
!	!	!	!	!LO:TX:t=P:problem=mixed beam	!	!
2D 2DD^>/	2cn 2A^\	sf	4f#^/	(8dd^\L	.	sf
.	.	.	.	8ccn\	.	.
.	.	.	4ryy	8f#</	.	.
.	.	.	.	8a</J	.	.
=17	=17	=17	=17	=17	=17	=17
2D 2GG^>/	2B 2G^\	.	8g'/L)	4r	.	.
.	.	.	16r	.	.	.
.	.	.	(16f#/Jk	.	.	.
.	.	.	8g'/)	4r	.	.
.	.	.	8r	.	.	.
4GG 4GGG'/	4d 4B 4G'\	sf	4b 4g'^>/	4gg 4dd'^\	.	.
!	!	!	!LO:LB:g=original	!	!	!
=18||	=18||	=18||	=18||	=18||	=18||	=18||
*k[fnb-e-a-]	*k[fnb-e-a-]	*	*k[fnb-e-a-]	*k[fnb-e-a-]	*	*
4.FF 4.FFF^>/	(4.c 4.A-^\	sf	(4.a- 4.e-^>/	4.aa- 4.ee-^\	.	sf
8r	8B-\L	ff	8b-/L	8r	.	.
4r	8A-\	.	8a-/	4r	.	.
.	8E-\J	.	8e-/J	.	.	.
=19	=19	=19	=19	=19	=19	=19
2.r	8C\L)	<	8c'/L)	2.r	.	.
!	!	!	!LO:TX:a:i:t=marcatissimo	!	!	!
.	16r	.	16r	.	.	.
.	(16E-\Jk	.	(16e-/Jk	.	.	.
.	4A-'^\)	.	4a-'^>/)	.	.	.
.	4B-'^\	[[	4b-'^\	.	.	.
=20	=20	=20	=20	=20	=20	=20
!	!LO:TX:t=P:problem=mixed beam	!	!	!	!	!
4r	&(8c^\L	.	8r	8cc\L	.	<
.	8B-\	.	8e-/L	8ee-\	.	.
8r	8A-\J	.	8a-/	8aa-\	.	.
!LO:TX:a:t=P:problem= belka między kernami	!	!	!	!	!	!
8E-/L	8r	.	8b-/	8bb-\	.	.
8A-/	4r	.	8cc/	8ccc\	.	.
8B-\&)J	.	.	8ee-/J	8eee-\J	.	[[
*	*clefG2	*	*	*	*	*
!LO:LB:g=original	!	!	!	!	!	!
=21	=21	=21	=21	=21	=21	=21
*	*	*	*	*8va	*	*
4c 4F\	8a-L 8e-'/	.	8aa-L 8ee-'\	8aaa-L 8eee-'\	.	ff
.	8a-J 8e-'/	.	8aa-J 8ee-'\	8aaa-J 8eee-'\	.	.
4r	4a- 4e-'/	.	4aa- 4ee-'\	4aaa- 4eee-'\	.	.
*	*clefF4	*	*	*	*	*
*	*	*	*	*X8va	*	*
4FF 4FFF'/	4c 4A-'\	.	4r	4r	.	.
=22	=22	=22	=22	=22	=22	=22
4.FF 4.FFF^>/	(4.c 4.A-^\	sff	(4.a- 4.e-^>/	4.aa- 4.ee-^\	.	sf
8r	8B-\L	.	8b-/L	8r	.	.
4r	8A-\	.	8a-/	4r	.	.
.	8E-\J	.	8e-/J	.	.	.
=23	=23	=23	=23	=23	=23	=23
2.r	8C\L)	<	8c'/L)	2.r	.	.
.	16r	.	16r	.	.	.
.	(16E-\Jk	.	(16e-/Jk	.	.	.
.	4A-'^\)	.	4a-'^>/)	.	.	.
.	4B-'^\	[[	4b-'^\	.	.	.
=24	=24	=24	=24	=24	=24	=24
(4.AA-^>/	(4.A-^\	sf	8r	8cc\L	.	<
.	.	.	8e-/L	8ee-\	.	.
.	.	.	8a-/	8aa-\	.	.
8BB-/L	8B-\L	.	8b-/	8bb-\	.	.
8AA-/	8A-\	.	8cc/	8ccc\	.	.
8EE-/J	8E-\J	.	8ee-/J	8eee-\J	.	[[
=25	=25	=25	=25	=25	=25	=25
*	*	*	*	*8va	*	*
8CC/L)	8C\L)	<	8ee-L 8a-'\	8aaa-L 8eee- 8aa-'\	.	.
16r	16r	.	8ee-J 8a-'\	8aaa-J 8eee- 8aa-'\	.	.
(16EE-/Jk	(16E-\Jk	.	.	.	.	.
4AA-'/)	4A-'\)	.	4ee- 4a-'\	4aaa- 4eee- 4aa-'\	.	.
*	*	*	*	*X8va	*	*
4BB-'/	4B-'\	[[	4r	4r	.	.
!LO:PB:g=original	!	!	!LO:PB:g=original	!	!	!
=26	=26	=26	=26	=26	=26	=26
!	!LO:TX:a:i:t=ten.	!	!	!	!	!
!	!LO:TX:b:i:t=feroce	!	!	!	!	!
4FF 4FFF'/	(4..c 4..A-^\	ff	4r	4r	.	.
*	*	*	*	*8va	*	*
!LO:TX:a:i:t=marcatissimo	!	!	!LO:TX:a:rj:t=sempre	!	!	!
4r	.	.	4ee- 4a-'\	4aaa- 4eee- 4aa-'\	.	ff
.	16d\KL	.	.	.	.	.
4FF 4FFF'/	8e-'\)	.	4ee- 4a-'\	4aaa- 4eee- 4aa-'\	.	.
.	16r	.	.	.	.	.
.	(16d\Jk	.	.	.	.	.
=27	=27	=27	=27	=27	=27	=27
4FF 4FFF'/	8cL 8A-'\)	.	4r	4r	.	.
.	16r	.	.	.	.	.
.	(16E-\Jk	.	.	.	.	.
4r	4c'^\)	.	4ee- 4a-'\	4aaa- 4eee- 4aa-'\	.	.
4FF 4FFF'/	4B-'^\	.	4ee- 4a-'\	4aaa- 4eee- 4aa-'\	.	.
=28	=28	=28	=28	=28	=28	=28
4FF 4FFF'/	4.A- 4.E-^\	sf	4r	4r	.	.
4r	.	.	4ee- 4a-'\	4aaa- 4eee- 4aa-'\	.	.
.	8B-\L	<	.	.	.	.
4FF 4FFF'/	8E-\	.	4ee- 4a-'\	4aaa- 4eee- 4aa-'\	.	.
.	8A-\J	.	.	.	.	.
=29	=29	=29	=29	=29	=29	=29
4FF 4FFF'/	8.dL 8.B-^\	.	4r	4r	.	.
.	16cJk 16A-\	[	.	.	.	.
4r	4c 4A-'\	.	4ee- 4a-'\	4aaa- 4eee- 4aa-'\	.	.
4FF 4FFF'/	4r	.	4ee- 4a-'\	4aaa- 4eee- 4aa-'\	.	.
=30	=30	=30	=30	=30	=30	=30
4FF 4FFF'/	(4.c 4.A-^\	sf	4r	4r	.	.
4r	.	.	4ee- 4a-'\	4aaa- 4eee- 4aa-'\	.	.
.	8d\L	.	.	.	.	.
4FF 4FFF'/	8f 8d\	.	4ee- 4a-'\	4aaa- 4eee- 4aa-'\	.	.
.	8e-J 8c\	.	.	.	.	.
=31	=31	=31	=31	=31	=31	=31
4FF 4FFF'/	8dL 8B-'\)	.	4r	4r	.	.
.	16r	.	.	.	.	.
.	(16E-\Jk	.	.	.	.	.
4r	4d 4B-'^\)	.	4ee- 4a-'\	4aaa- 4eee- 4aa-'\	.	.
4FF 4FFF'/	4c 4A-'^\	.	4ee- 4a-'\	4aaa- 4eee- 4aa-'\	.	.
=32	=32	=32	=32	=32	=32	=32
4FF 4FFF'/	4.B- 4.E-^\	sf	4r	4r	.	.
4r	.	.	4ee- 4a-'\	4aaa- 4eee- 4aa-'\	.	.
.	8E-\L	<	.	.	.	.
4FF 4FFF'/	8A-\	.	4ee- 4a-'\	4aaa- 4eee- 4aa-'\	.	.
.	8B-\J	[[	.	.	.	.
=33	=33	=33	=33	=33	=33	=33
4FF 4FFF'/	8.dL 8.B-^\	.	4r	4r	.	.
.	16cJk 16A-\	.	.	.	.	.
4r	4c 4A-'\	.	4ee- 4a-'\	4aaa- 4eee- 4aa-'\	.	.
4FF 4FFF'/	4c 4A-'\	sf	4ee- 4a-'\	4aaa- 4eee- 4aa-'\	.	.
*	*	*	*	*X8va	*	*
!LO:LB:g=original	!	!	!	!LO:LB:g=original	!	!
=34	=34	=34	=34	=34	=34	=34
8.D^>/L	8.d^\L	sf	4r	4r	.	.
16C/Jk	16c\Jk	.	.	.	.	.
4C'/	4c'\	.	4r	4r	.	.
*	*	*	*	*8va	*	*
4FF 4FFF'/	4e- 4A-'^\	sf	4ee- 4a-'\	4aaa- 4eee- 4aa-'\	.	sff
=35	=35	=35	=35	=35	=35	=35
8.D^>/L	8.d^\L	sf	4r	4r	.	.
16C/Jk	16c\Jk	.	.	.	.	.
4C'/	4c'\	.	4r	4r	.	.
4FF 4FFF'/	4e- 4A-'^\	sf	4ee- 4a-'\	4aaa- 4eee- 4aa-'\	.	sff
=36	=36	=36	=36	=36	=36	=36
8.D^>/L	8.d^\L	sf	4r	4r	.	.
16C/Jk	16c\Jk	.	.	.	.	.
4C'/	4c'\	.	4r	4r	.	.
4FF#X 4FFF#X'/	4e- 4An'^\	sf	4ee- 4an'\	4aaan 4eee- 4aan'\	.	sff
=37	=37	=37	=37	=37	=37	=37
8.D^>/L	8.d^\L	sf	4r	4r	.	.
16C/Jk	16c\Jk	.	.	.	.	.
4C'/	4c'\	.	4r	4r	.	.
4FF#X 4FFF#X'/	4e- 4An'^\	sf	4ee- 4an'\	4aaan 4eee- 4aan'\	.	sff
*	*	*	*	*X8va	*	*
=38||	=38||	=38||	=38||	=38||	=38||	=38||
*k[bnenanf#]	*k[bnenanf#]	*	*k[bnenanf#]	*k[bnenanf#]	*	*
4.GG 4.GGG^>/	4.e 4.c 4.G^\	sff	4.ee 4.cc^\	4.ggg 4.gg^\	.	sff
8r	8r	.	8r	(8gg\L	.	.
4r	4r	.	4r	8ee\	.	.
.	.	.	.	8cc\J	.	.
=39	=39	=39	=39	=39	=39	=39
2.r	(4.f#X 4.e-X^\	sf	2.r	8a\L)	.	<
.	.	.	.	16r	.	.
.	.	.	.	16cc'\Jk	.	.
.	.	.	.	4cc'\	.	.
.	8d\L	.	.	.	.	.
.	8fn\	.	.	4dd 4b'\	.	[[
.	8G\J)	.	.	.	.	.
=40	=40	=40	=40	=40	=40	=40
2.GG 2.GGG^>/	2.en 2.c^\	sf	2.r	(4.ee 4.cc^\	.	sf
.	.	.	.	8gg\L	.	.
.	.	.	.	8ee\	.	.
.	.	.	.	8cc\J	.	.
=41	=41	=41	=41	=41	=41	=41
2.r	(4.f#X 4.e-X^\	sf	2.r	8a\L)	.	<
.	.	.	.	16r	.	.
.	.	.	.	16cc'\Jk	.	.
.	.	.	.	4cc'\	.	.
.	8d\L	.	.	.	.	.
.	8fn\	.	.	4dd 4b\	.	[[
.	8G\J)	.	.	.	.	.
!LO:LB:g=original	!	!	!	!LO:LB:g=original	!	!
=42	=42	=42	=42	=42	=42	=42
2.GG 2.GGG^>/	2.en 2.c^\	sf	4r	4.ee 4.cc^\	.	sf
.	.	.	8r	.	.	.
.	.	.	(8gg\L	(8ggg\L	.	.
.	.	.	8ee\	8eee\	.	.
.	.	.	8cc\J	8ccc\J	.	.
=43	=43	=43	=43	=43	=43	=43
(4.F#X^\	(4.f#X^\	sf	8a\L)	8aa\L)	.	<
.	.	.	16r	16r	.	.
.	.	.	16cc'\Jk	16ccc'\Jk	.	.
.	.	.	4cc'\	4ccc'\	.	.
8D/L	8d\L	.	.	.	.	.
8Fn/	8fn\	.	4dd 4b'\	4ddd 4bb'\	.	.
8GG/J)	8G\J)	.	.	.	.	.
=44	=44	=44	=44	=44	=44	=44
*	*	*	*	*8va	*	*
(4.C^>/	(4.c^\	sf	8eeL 8cc\	8eeeL 8ccc\	.	.
.	.	.	16r	16r	.	.
.	.	.	16ggJk 16ee\	16gggJk 16eee\	.	.
.	.	.	4gg 4ee'\	4ggg 4eee'\	.	.
8GG/L	8G\L	.	.	.	.	.
8FF#X/	8F#X\	.	4aa 4ff#'\	4aaa 4fff#'\	.	[[
8EE/J	8E\J	.	.	.	.	.
=45	=45	=45	=45	=45	=45	=45
8DD#X/L	8D#X\L	<	2.bb 2.gg^\	2.bbb 2.ggg^\	.	sf
8GG/	8G\	.	.	.	.	.
8AA/	8A\	.	.	.	.	.
8BB/	8B\	.	.	.	.	.
8C#X/J)	8c#X\	.	.	.	.	.
8r	8d#X\J)	[	.	.	.	.
*	*clefG2	*	*	*	*	*
=46	=46	=46	=46	=46	=46	=46
*	*	*	*^	*	*	*
[2.BB [2.BBB/	4.e^/	sfp	[2.bb [2.gg^/	8dd\	[2.bbb [2.ggg^\	.	fp
.	.	.	.	8r	.	.	.
.	.	.	.	4r	.	.	.
.	(8b/L	.	.	.	.	.	.
.	8g/	.	.	4r	.	.	.
.	8e/J	.	.	.	.	.	.
*	*	*	*v	*v	*	*	*
=47	=47	=47	=47	=47	=47	=47
!	!	!	!	!LO:TX:b:i:t=espressivo	!	!
2.BB] 2.BBB/]	8B/L)	.	(4bb] 4gg\]	(4bbb] 4ggg\]	.	.
.	16r	.	.	.	.	.
.	16d#X/Jk	.	.	.	.	.
.	(4d#/	.	4aa 4ccn\	4aaa 4cccn\	.	.
.	8e/L	.	8ggL 8b\	8gggL 8bb\	.	.
.	8f#/J	.	8ff#J 8a\	8fff#J 8aa\	.	.
=48	=48	=48	=48	=48	=48	=48
[2.BB [2.BBB/	4.e^>/)	.	4.gg 4.b\)	2.ggg 2.bb\)	.	.
.	8r	.	(8b^>/L	.	.	.
.	4r	.	8g/	.	.	.
.	.	.	8e/J	.	.	.
=49	=49	=49	=49	=49	=49	=49
2.BB] 2.BBB/]	(8.B/L	.	4b 4g/	(4bb 4gg/	.	<
.	16c#X/Jk)	.	.	.	.	.
.	4c#/	.	4gg 4b\	4ggg 4bb\	.	[
.	4d#X/	.	4ff# 4a\	4fff# 4aa\	.	.
!LO:LB:g=original	!	!	!LO:LB:g=original	!	!	!
=50	=50	=50	=50	=50	=50	=50
[2.BB [2.BBB/	4.e 4.B^>/	.	2ee 2g\)	2eee 2gg\)	.	.
*	*clefF4	*	*	*	*	*
.	(8G\L	.	.	.	.	.
*	*	*	*	*X8va	*	*
!	!	!	!LO:TUP:a	!LO:TUP:a:problem=klamra łukowa	!	!
.	8F#\	.	(12ccL 12a\	(12cccL 12aa\	.	.
.	.	.	12ddn\	12dddn\	.	.
.	8D#X\J	.	.	.	.	.
.	.	.	12cc\J	12ccc\J	.	.
=51	=51	=51	=51	=51	=51	=51
2.BB] 2.BBB/]	8.E\L)	<	4b 4g/	4bb 4gg\	.	<
.	(16G\Jk	.	.	.	.	.
.	4B\	.	4g 4e/	4gg 4ee\	.	.
.	4c\	[[	4a 4f#/	4aa 4ff#\	.	.
=52	=52	=52	=52	=52	=52	=52
[2.BB [2.BBB/	8.dn\L)	.	4b 4g/)	4bb 4gg\)	.	.
.	(16c\Jk	>	.	.	.	.
*	*	*	*	*8va	*	*
.	4B\)	.	(4gg 4b\	[2bbb [2bb^\	.	[
.	[4B^\	.	4aa 4cc\	.	.	.
=53	=53	=53	=53	=53	=53	=53
!	!	!	!	!LO:N:n=2:vis=2	!	!
2.BB] 2.BBB/]	8.B\L]	.	2ff# 2a^\	2.bbb] 2.bb\]	.	.
.	16c\Jk	.	.	.	.	.
.	2B^\	]	.	.	.	.
.	.	.	4b 4a/	.	.	.
=54	=54	=54	=54	=54	=54	=54
[2.BB [2.BBB/	[2.B^\	<	4.ee 4.g^\)	[2.bbb [2.bb^\	.	.
.	.	.	(8b/L	.	.	.
.	.	.	8g/	.	.	.
.	.	.	8e/J	.	.	.
=55	=55	=55	=55	=55	=55	=55
2.BB] 2.BBB/]	8.B\L]	.	4b\	4bbb] 4bb\]	.	.
.	16d#X\Jk	.	.	.	.	.
*	*	*	*	*X8va	*	*
.	(4d#\	.	4cc\	(4aa\	.	.
.	8e\L	.	8b/L	8gg\L	.	.
.	8f#\J	[[	8a/J	8ff#\J	.	.
=56	=56	=56	=56	=56	=56	=56
[2.BB [2.BBB/	4.e^\)	.	4.b\)	2.gg\)	.	.
.	8r	.	(8b/L	.	.	.
.	4r	.	8g/	.	.	.
.	.	.	8e/J	.	.	.
=57	=57	=57	=57	=57	=57	=57
2.BB] 2.BBB/]	8.B\L	.	4g/	(4b\	.	<
.	16c#X\Jk	.	.	.	.	.
.	(4c#\	.	4b/	4gg\	.	[
.	4d#X\)	.	4a/	4ff#\	.	.
!LO:LB:g=original	!	!	!LO:LB:g=original	!	!	!
=58	=58	=58	=58	=58	=58	=58
[2.BB [2.BBB/	4.e 4.B^\	.	2g/)	2ee\)	.	.
.	(8G\L	.	.	.	.	.
!	!	!	!	!LO:TUP:a:problem=klamra łukowa	!	!
.	8F#\	.	(4a/	(12cc\L	.	.
.	.	.	.	12ddn\	.	.
.	8D#X\J	.	.	.	.	.
.	.	.	.	12cc\J	.	.
=59	=59	=59	=59	=59	=59	=59
2.BB] 2.BBB/]	8.E\L)	<	4g/	4b\)	.	.
.	(16G\Jk	.	.	.	.	.
.	4B\	.	4g 4e/	4r	.	.
.	4c\	[[	4a 4f#/	4r	.	.
=60	=60	=60	=60	=60	=60	=60
[2.BB 2.BBB/	8.dn\L)	.	4b 4g/)	4r	.	.
.	16c\Jk	.	.	.	.	.
.	4B\	.	(4g/	[2bb [2b^\	.	.
.	4c\	.	4a/	.	.	.
=61	=61	=61	=61	=61	=61	=61
8.BB/L]	2A\	.	2f#/)	2.bb] 2.b\]	.	.
16C/Jk	.	.	.	.	.	.
[2BB^>/	.	.	.	.	.	.
.	4B 4A\	.	4r	.	.	.
=62	=62	=62	=62	=62	=62	=62
*^	*	*	*	*	*	*
!	!	!LO:TX:b:b:BI:t=dim._:problem=dynamics with extention lines	!	!	!	!	!
4BB/]	4ryy	4e 4G\	>	4r	2.r	.	>
[2BB^>/	[2EE\	(4B^\	.	(4g/	.	.	.
.	.	4c\	]]	4a/	.	.	.
=63	=63	=63	=63	=63	=63	=63	=63
8.BB/L]	2.EE\_	2A\)	.	2f#/)	2.r	.	.
16C/Jk	.	.	.	.	.	.	.
2BB^/	.	.	.	.	.	.	.
!	!	!LO:TUP:a:problem=klamra łukowa	!	!	!	!	!
.	.	(12cL 12A\	.	4r	.	.	.
.	.	12d\	.	.	.	.	.
.	.	12c\J	.	.	.	.	.
=64	=64	=64	=64	=64	=64	=64	=64
4BB/	4EE\]	4B 4G\)	.	4r	2.r	.	.
[2BB/	[2EE\	(4B^\	.	(4g/	.	.	.
.	.	4c\	.	4a/	.	.	.
=65	=65	=65	=65	=65	=65	=65	=65
8.BB/L]	2.EE\_	2A\)	.	2f#/)	2.r	.	.
16C/Jk	.	.	.	.	.	.	.
[2BB^/	.	.	.	.	.	.	.
!	!	!LO:TUP:a:problem=klamra łukowa	!	!	!	!	!
.	.	(12cL 12A\	.	4r	.	.	.
.	.	12d\	.	.	.	.	.
.	.	12c\J	.	.	.	.	.
!LO:PB:g=original	!	!	!	!LO:PB:g=original	!	!	!
=66	=66	=66	=66	=66	=66	=66	=66
4BB/]	4EE\]	4B 4G\)	.	4r	2.r	.	.
2BB [2EE/	2ryy	(4B\	.	(4g/	.	.	.
.	.	4c\	.	4a/	.	.	.
*v	*v	*	*	*	*	*	*
=67	=67	=67	=67	=67	=67	=67
2AA#X 2EE^/]	2A#X 2G^\)	sf	[2.e^^/)	2.r	.	.
4BB 4BBB/	4B\	.	.	.	.	.
=68	=68	=68	=68	=68	=68	=68
!LO:N:vis=2	!	!	!	!	!	!
2.BB [2.EE/	4B 4G\	.	4e/]	2.r	.	.
.	(4B\	.	(4g/	.	.	.
.	4c\	.	4a/	.	.	.
=69	=69	=69	=69	=69	=69	=69
2AA#X 2EE^/]	2A#X 2G^\)	.	2.e^^/)	2.r	.	.
4BB 4BBB/	4B\	.	.	.	.	.
=70	=70	=70	=70	=70	=70	=70
!	!	!	!	!LO:TX:b:B:t=4	!	!
4.BB 4.EE^>/	4.B 4.G^\	pp	0.r	0.r	.	.
(8BB/L	(8B\L	.	.	.	.	.
8GG/	8G\	.	.	.	.	.
8EE/J	8E\J	.	.	.	.	.
=71	=71	=71	=71	=71	=71	=71
8BBB'/L)	8BB'/L)	.	.	.	.	.
16r	16r	.	.	.	.	.
16CC#X'/Jk	16C#X'/Jk	.	.	.	.	.
4CC#'/	4C#'/	.	.	.	.	.
4DD#X'/	4D#X'\	.	.	.	.	.
=72	=72	=72	=72	=72	=72	=72
4.EE^>/	4.E^\	.	.	.	.	.
(8BB/L	(8B\L	.	.	.	.	.
8GG/	8G\	.	.	.	.	.
8EE/J	8E\J	.	.	.	.	.
=73	=73	=73	=73	=73	=73	=73
8BBB'/L)	8BB'/L)	.	.	.	.	.
16r	16r	.	.	.	.	.
16CC#X'/Jk	16C#X'/Jk	.	.	.	.	.
4CC#'/	4C#'/	.	.	.	.	.
4DD#X'/	4D#X'\	.	.	.	.	.
!LO:LB:g=original	!	!	!	!	!	!
=74	=74	=74	=74	=74	=74	=74
!	!LO:TX:b:t=sempre	!	!	!LO:TX:b:i:t=cantando e legato	!	!
(4.EE/	(4.E^\	p	8G'/	2.g 2.c/	.	p
.	.	.	8r	.	.	.
.	.	.	4r	.	.	.
8GG/L	8G\L	.	.	.	.	.
8EE/	8E\	.	4r	.	.	.
8CCn/J)	8Cn\J)	.	.	.	.	.
=75	=75	=75	=75	=75	=75	=75
[2.CC/	(8.AA/L	<	4r	4r	.	.
.	16C/Jk)	.	.	.	.	.
.	4C'/	.	(>4c 4A/	(4a 4fn/	.	.
.	4D'\	[[	4B 4A/	4a 4f/	.	.
=76	=76	=76	=76	=76	=76	=76
*	*	*	*^	*	*	*
2.CC/]	(4.E^\	<	2.c/)	8G\	2.g 2.e/)	.	.
.	.	.	.	8r	.	.	.
.	.	.	.	4r	.	.	.
.	8G\L	.	.	.	.	.	.
.	8E\	.	.	4r	.	.	.
.	8C\J)	[[	.	.	.	.	.
*	*	*	*v	*v	*	*	*
=77	=77	=77	=77	=77	=77	=77
[2.CC/	(8.AA/L	<	4r	4r	.	.
.	16C/Jk)	.	.	.	.	.
.	4C'/	.	4fn 4A/	4ffn 4a\	.	<
.	4D'\	[[	4f 4B/	4ff 4b\	.	.
!	!	!	!LO:LB:g=original	!	!	!
=78	=78	=78	=78	=78	=78	=78
!	!LO:TX:b:BI:t=cresc._:problem=dynamics with extention lines	!	!	!	!	!
2.CC/]	(4.E^\	<	4.e 4.c/	4.ee 4.cc\	.	<
.	8G\L	.	(8B/L	(8b\L	.	.
.	8E\	.	8c/	8cc\	.	.
.	8C\J)	[[	8e/J	8ee\J	.	[[
=79	=79	=79	=79	=79	=79	=79
[2.CC/	(8.AA/L	f	2a 2e 2c^>/	2aa 2ee 2cc^\	.	fz
.	16C/Jk)	.	.	.	.	.
.	4C'/	.	.	.	.	.
.	4D'\	.	4a-X 4fn 4c/	4aa-X 4ffn 4cc\	.	>
=80	=80	=80	=80	=80	=80	=80
!	!LO:TX:b:b:BI:t=dim._:problem=dynamics with extention lines	!	!	!	!	!
2.CC/]	(4.E^\	>	4g 4e 4c/	4gg 4ee 4cc\	.	.
.	.	.	4e 4c/	4ee 4cc 4g\	.	.
.	8G\L	.	.	.	.	.
.	8E\	.	4c 4G/	4cc 4g 4e/	.	.
.	8C\J)	.	.	.	.	.
=81	=81	=81	=81	=81	=81	=81
[2.CC/	(8.AA/L	.	2e 2c/	2a 2fn/	.	.
.	16C/Jk)	.	.	.	.	.
.	4C'/	.	.	.	.	.
.	4D'\	]]	4Bn/	4a-X 4f/	.	.
!LO:LB:g=original	!	!	!	!	!	!
=82	=82	=82	=82	=82	=82	=82
2.CC/]	(4.E^\	p	4c 4G/)	4g 4e/)	.	.
.	.	.	4r	4r	.	]
.	8G\L	.	.	.	.	.
.	8E\	.	4r	4r	.	.
.	8C\J	.	.	.	.	.
=83	=83	=83	=83	=83	=83	=83
[2.GG [2.GGG^/	8.AA/L)	.	4r	4r	.	.
.	16C/Jk	.	.	.	.	.
.	4C'/	.	(4A/	4a 4fn/	.	<
.	4D'\	.	8B-X/L	4a 4f/	.	[[
.	.	.	8Bn/J	.	.	.
=84	=84	=84	=84	=84	=84	=84
2.GG] 2.GGG/]	(4.E^\	.	2.c/)	2.g 2.e/	.	.
.	8G\L	.	.	.	.	.
.	8E\	.	.	.	.	.
.	8C\J	.	.	.	.	.
=85	=85	=85	=85	=85	=85	=85
[2.GG [2.GGG/	8.AA/L)	.	4r	4r	.	.
.	16C/Jk	.	.	.	.	.
.	4C'/	.	4fn 4A/	4ffn 4a\	.	<
.	4D'\	.	4f 4B-X/	4ff 4b-X\	.	[[
!	!	!	!LO:LB:g=original	!	!	!
=86	=86	=86	=86	=86	=86	=86
2.GG] 2.GGG/]	4.G 4.C^\	.	4e 4B-X/	4ee 4b-X\	.	>
.	.	.	4d 4B-/	4dd 4b-\	.	.
.	(8G\L	.	.	.	.	.
.	8E\	.	4c 4B-/	4cc 4b-\	.	]]
.	8C\J	.	.	.	.	.
=87	=87	=87	=87	=87	=87	=87
[2.GG [2.GGG/	8.AA/L)	.	4c 4A/	4ee 4cc 4f#X 4e/	.	>
.	16C/Jk	.	.	.	.	.
.	4C'/	.	4d/	4dd 4f#/	.	.
.	4D'\	.	4c/	4cc 4f#/	.	]]
=88	=88	=88	=88	=88	=88	=88
2.GG] 2.GGG/]	([4E-X\	.	2.c/	(4bn 4f#/	.	<
.	8E-\L]	.	.	8a/L	.	.
.	8F#X\J	.	.	8b/	.	.
.	4E-\	.	.	8cc/	.	.
.	.	.	.	8a/J)	.	[[
!LO:LB:g=original	!	!	!	!	!	!
=89	=89	=89	=89	=89	=89	=89
[2.GG [2.GGG/	8.D\L	.	(2c^>/	2a-X 2fn^>/	.	>
.	16E-X\Jk	.	.	.	.	.
.	2D\)	.	.	.	.	.
.	.	.	4B/)	4g 4f/	.	]]
=90	=90	=90	=90	=90	=90	=90
!	!LO:TX:b:b:BI:t=dim._:problem=dynamics with extention lines	!	!	!LO:TX:b:BI:t=dim._:problem=dynamics with extention lines	!	!
2.GG] 2.GGG/]	([4E-X\	>	2.c/	(4b 4f#X/	.	>
.	8E-\L]	.	.	8a/L	.	.
.	8F#X\J	.	.	8b/	.	.
.	4E-\	.	.	8cc/	.	.
.	.	.	.	8a/J)	.	.
=91	=91	=91	=91	=91	=91	=91
[2.GG [2.GGG/	8.D\L	.	(2c^>/	2a-X 2fn^>/	.	.
.	16En\Jk	.	.	.	.	.
.	2D\)	]]	.	.	.	.
.	.	.	4B/)	4g 4f/	.	]]
=92	=92	=92	=92	=92	=92	=92
2.GG] 2.GGG/]	(4.E-X\	pp	2.c/	(4b 4f#X/	.	pp
.	.	.	.	8a/L	.	.
.	8F#X\	.	.	8b/	.	.
.	4E-\	.	.	8cc/	.	.
.	.	.	.	8a/J)	.	.
!	!	!	!	!LO:LB:g=original	!	!
=93	=93	=93	=93	=93	=93	=93
2GG 2GGG/	8.D\L	.	(2c/	2a-X 2fn/	.	.
.	16En\Jk	.	.	.	.	.
.	2D\)	.	.	.	.	.
4GG/	.	.	4B/)	4g 4f/	.	.
=94	=94	=94	=94	=94	=94	=94
[2.GG [2.GGG/	4.G^\	.	2.c/	2.g 2.e/	.	.
.	(8G\L	.	.	.	.	.
.	8E\	.	.	.	.	.
.	8C\J	.	.	.	.	.
=95	=95	=95	=95	=95	=95	=95
2.GG] 2.GGG/]	8AA'/L)	.	4r	4r	.	.
.	16r	.	.	.	.	.
.	16C'/Jk	.	.	.	.	.
.	4C'/	.	4c/	4e/	.	.
.	4F#X 4D'\	.	4c/	4f#/	.	.
!LO:LB:g=original	!	!	!	!	!	!
=96	=96	=96	=96	=96	=96	=96
!	!LO:TX:b:BI:t=poco a poco cresc. molto_:problem=dynamics with extention lines	!	!	!LO:TX:b:BI:t=poco a poco cresc. molto_:problem=dynamics with extention lines	!	!
[2.GG [2.GGG/	4.G 4.E^\	<	2.c^/	2.g 2.e^/	.	<
.	(8G\L	.	.	.	.	.
.	8E\	.	.	.	.	.
.	8C\J	.	.	.	.	.
=97	=97	=97	=97	=97	=97	=97
2.GG] 2.GGG/]	8AA'/L)	.	4r	4r	.	.
.	16r	.	.	.	.	.
.	16C'/Jk	.	.	.	.	.
.	4C'/	.	4e 4c/	4ee 4cc\	.	.
.	4F# 4D'\	.	4f# 4c/	4ff# 4cc\	.	.
=98	=98	=98	=98	=98	=98	=98
[2.GG [2.GGG/	4.G 4.E^\	.	[2.g [2.e^/	[2.gg [2.cc^\	.	.
.	(8G\L	.	.	.	.	.
.	8E\	.	.	.	.	.
.	8C\J	.	.	.	.	.
=99	=99	=99	=99	=99	=99	=99
2.GG] 2.GGG/]	8AA'/L)	.	4g] 4e/]	4gg] 4cc\]	.	.
.	16r	.	.	.	.	.
.	16C'/Jk	.	.	.	.	.
.	4C'/	.	4e 4c/	4ee 4cc\	.	.
.	4D'\	.	4f# 4c/	4ff# 4cc\	.	.
=100	=100	=100	=100	=100	=100	=100
8AAA'/L	8AA'/L	.	4g 4e 4c/	4gg 4ee 4cc\	.	.
16r	16r	.	.	.	.	.
16CC'/Jk	16C'/Jk	.	.	.	.	.
4CC'/	4C'/	.	4e 4c/	4ee 4cc\	.	.
4DD'/	4D'\	.	4f# 4c/	4ff# 4cc\	.	[[
=101	=101	=101	=101	=101	=101	=101
8AAA'/L	8AA'/L	.	4g 4e 4c^>/	4gg 4ee 4cc^\	.	<
16r	16r	.	.	.	.	.
16CC'/Jk	16C'/Jk	.	.	.	.	.
4CC'/	4C'/	.	4e 4c^>/	4ee 4cc^\	.	.
4DD'/	4D'\	[[	4f# 4c^>/	4ff# 4cc^\	.	[[
!	!	!	!LO:LB:g=original	!	!	!
=102	=102	=102	=102	=102	=102	=102
4D 4DD'/	4c 4A'\	ff	4f# 4e'/	4ee'\	.	ff
!	!	!	!	!LO:TX:t=P:problem=mixed beam	!	!
2D 2DD^/	2c 2A^\	sf	4f#^/	(8dd^\L	.	sf
.	.	.	.	8cc\J	.	.
!	!	!	!LO:TX:a:t=P:problem= belka między kernami	!	!	!
.	.	.	8e/L	4r	.	.
.	.	.	8f#/J	.	.	.
=103	=103	=103	=103	=103	=103	=103
!	!	!	!LO:TX:a:t=P:problem= belka między kernami	!LO:TX:t=P:problem=mixed beam	!	!
4D 4GG^/	4d 4B^\	.	8B/L)	8r	.	.
.	.	.	8ryy	16r	.	.
.	.	.	.	(16a/Jk	.	.
4r	4r	.	4r	8b'\)	.	.
.	.	.	.	8r	.	.
4C#X 4CC#X'/	4G\	p	4e 4B'/	4g'/	.	p
=104	=104	=104	=104	=104	=104	=104
!	!	!	!	!LO:TX:b:BI:t=cresc._:problem=dynamics with extention lines	!	!
4r	4r	.	4r	8a/L	.	<
.	.	.	.	16r	.	.
.	.	.	.	(16b/Jk	.	.
4r	4r	.	4r	8cc'\)	.	.
.	.	.	.	8r	.	.
!	!LO:TX:b:BI:t=cresc._:problem=dynamics with extention lines	!	!	!	!	!
4Cn 4CCn'/	4A'\	<	4f# 4d'/	4a'/	.	.
=105	=105	=105	=105	=105	=105	=105
4r	4r	.	4r	8b\L	.	.
.	.	.	.	16r	.	.
.	.	.	.	(16cc\Jk	.	.
4r	4r	.	4r	8dd'\)	.	.
.	.	.	.	8r	.	.
4BB 4BBB'/	4B 4G'\	[	4g 4d'/	4b'\	.	[[
=106	=106	=106	=106	=106	=106	=106
4r	4r	.	4r	8cc#X\L	.	f <
.	.	.	.	16r	.	.
.	.	.	.	(16dd\Jk	.	.
4r	4r	.	4r	8ee'\)	.	.
.	.	.	.	8r	.	.
4AA 4AAA'/	4e 4c#X 4G'\	f	4g'/	4gg 4cc#'\	.	[[
!	!	!	!LO:LB:g=original	!	!	!
=107	=107	=107	=107	=107	=107	=107
(2BB 2BBB^/	4r	.	(2g^>/	(4.gg 4.dd^\	.	sf
.	(4d 4D^\	.	.	.	.	.
.	.	.	.	8dd\L	.	.
4AA#X 4AAA#X/)	4c#X 4G\)	.	8f#'^>/L)	8ff# 8cc#X 8g'^\)	.	.
.	.	.	16r	16r	.	.
.	.	.	16e/Jk	16ee\Jk	.	.
=108	=108	=108	=108	=108	=108	=108
(2BB 2BBB^/	4r	.	4e^>/	(4.ee 4.g^\	.	.
.	(4d 4D^\	<	4r	.	.	.
.	.	.	.	8dd\L	.	<
4AA#X 4AAA#X/)	4c#X 4G\)	.	8f#'^>/L	8ff# 8cc#X 8g'^\)	.	.
.	.	.	16r	16r	.	.
.	.	.	16e/Jk	16ee\Jk	.	.
=109	=109	=109	=109	=109	=109	=109
(2BB 2BBB/	4r	.	4e^>/	(4.ee 4.g^\	.	.
.	(4d 4D^\	.	4r	.	.	.
.	.	.	.	8dd\L	.	.
4AAn 4AAAn/)	4c#X 4G\)	[[	8f#'^>/L	8ff# 8cc#X 8g'^\)	.	.
.	.	.	16r	16r	.	.
.	.	.	16e/Jk	16ee\Jk	.	[[
=110	=110	=110	=110	=110	=110	=110
4D 4DD'/	4c 4A'\	.	4e'/	4ee'\	.	.
2D 2DD^/	2c 2A^\	sf	4f#^>/	(8dd^>/L	.	sf
.	.	.	.	8ccn/	.	.
!	!	!	!	!LO:TX:a:i:t=m.g.	!	!
.	.	.	4r	8e/	.	.
.	.	.	.	8f#/J	.	.
=111	=111	=111	=111	=111	=111	=111
4D 4GG^/	4d 4B^\	.	4r	8g/L)	.	.
.	.	.	.	16r	.	.
.	.	.	.	(16a'/Jk	.	.
4r	4r	.	4r	8b'\)	.	.
.	.	.	.	8r	.	.
4E 4EE'/	4G'\	p	4e 4B'/	4g'/	.	p
!	!	!	!LO:PB:g=original	!	!	!
=112	=112	=112	=112	=112	=112	=112
!	!	!	!	!LO:TX:b:BI:t=cresc._:problem=dynamics with extention lines	!	!
4r	4r	.	4r	8a/L	.	<
.	.	.	.	16r	.	.
.	.	.	.	(16b/Jk	.	.
4r	4r	.	4r	8cc'\)	.	.
.	.	.	.	8r	.	.
!	!LO:TX:b:BI:t=cresc._:problem=dynamics with extention lines	!	!	!	!	!
4D#X 4DD#X'/	4A 4F#'\	<	4f# 4c'/	4a'/	.	.
=113	=113	=113	=113	=113	=113	=113
4r	4r	.	4r	8b\L	.	.
.	.	.	.	16r	.	.
.	.	.	.	(16ccn\Jk	.	.
4r	4r	.	4r	8dd'\)	.	.
.	.	.	.	8r	.	.
4Dn 4DDn'/	4B 4G'\	[[	4g 4d'/	4b'\	.	[[
=114	=114	=114	=114	=114	=114	=114
4r	4r	.	4r	8cc#X\L	.	<
.	.	.	.	16r	.	.
.	.	.	.	(16dd\Jk	.	.
4r	4r	.	4r	8ee'\)	.	.
.	.	.	.	8r	.	.
4E 4EE'/	4c#X 4A 4G'\	.	4cc#X 4g'/	4gg'\	.	[[
=115	=115	=115	=115	=115	=115	=115
2D 2DD^>/	2d 2B 2G^\	sf	(4b^\	(4bb^\	.	sf
.	.	.	8g'/)	8gg'\L)	.	.
.	.	.	8r	16r	.	.
.	.	.	.	(16ee\K	.	.
4Cn 4CCn/	4d 4A\	.	8f#'/L	8ff#'\)	.	.
.	.	.	16r	16r	.	.
.	.	.	(16a/Jk	(16aa\Jk	.	.
=116	=116	=116	=116	=116	=116	=116
2BB 2BBB^>/	2d 2G^\	sf	4g^/)	4gg 4dd^\	.	sf
.	.	.	4r	8dd'\L)	.	.
.	.	.	.	16r	.	.
.	.	.	.	(16g\K	.	.
4AA#X 4AAA#X/	4G\	.	8c#X'/L	8cc#X'\)	.	.
.	.	.	16r	16r	.	.
.	.	.	16e/Jk	16ee\Jk	.	.
=117	=117	=117	=117	=117	=117	=117
4AA 4AAA'/	4c#X 4G'\	.	4e'^>/	4ee'^\	.	f
2D 2DD^>/	2cn 2A^\	sf	4f#^/	(8dd^\L	.	.
.	.	.	.	8ccn\	.	.
.	.	.	4ryy	8f#</	.	.
.	.	.	.	8a</J)	.	.
!	!	!	!LO:LB:g=original	!	!	!
=118	=118	=118	=118	=118	=118	=118
2D 2GG^>/	2B 2G^\	.	2.r	(8.a^>/L	.	sf
.	.	.	.	16g/Jk)	.	.
.	.	.	.	8g'/	.	.
.	.	.	.	8r	.	.
8D 8GG'/	8d 8B 8G'\	sf	.	4r	.	.
8r	8r	.	.	.	.	.
!LO:LB:g=original	!	!	!	!	!	!
=119||	=119||	=119||	=119||	=119||	=119||	=119||
4r	4r	.	2.r	(8.f#^>/L	.	sf
.	.	.	.	16e/Jk)	.	.
4r	4r	.	.	8e'/	.	.
.	.	.	.	8r	.	.
8D 8DD'/	8c 8F#'\	sf	.	4r	.	.
8r	8r	.	.	.	.	.
=120	=120	=120	=120	=120	=120	=120
4r	4r	.	2.r	(8.e^>/L	.	sf
.	.	.	.	16d/Jk)	.	.
4r	4r	.	.	8d'/	.	.
.	.	.	.	8r	.	.
8D 8GG'/	8B 8G'\	sf	.	4r	.	.
8r	8r	.	.	.	.	.
=121	=121	=121	=121	=121	=121	=121
4r	4r	.	2.r	(8.f#^>/L	.	sf
.	.	.	.	16e/Jk)	.	.
4r	4r	.	.	8e'/	.	.
.	.	.	.	8r	.	.
8D 8DD'/	8c 8F#'\	sf	.	4r	.	.
8r	8r	.	.	.	.	.
=122	=122	=122	=122	=122	=122	=122
4r	4r	.	2.r	(8.e^>/L	.	sf
.	.	.	.	16d/Jk)	.	.
4r	4r	.	.	8d'/	.	.
!	!	!	!	!LO:TX:t=P:problem=text with extention lines	!	!
.	.	.	.	8r	.	.
!	!	!	!	!LO:TX:b:t=poco a poco accelerando	!	!
8D 8GG'/	8B 8G'\	sf	.	4r	.	.
8r	8r	.	.	.	.	.
=123	=123	=123	=123	=123	=123	=123
8D 8DD'^/	8c 8F#'^\	.	2.r	(8.e^>/L	.	sf
!LO:TX:a:t=poco a poco accelerando	!LO:TX:t=P:problem=text with extention lines	!	!	!	!	!
8r	8r	.	.	.	.	.
.	.	.	.	16d/Jk)	.	.
4r	4r	.	.	8d'/	.	.
.	.	.	.	8r	.	.
8D 8GG'/	8B 8G'\	.	.	(8.f#/L	.	.
8r	8r	.	.	.	.	.
.	.	.	.	16e/Jk)	.	.
!	!	!	!LO:LB:g=original	!	!	!
=124	=124	=124	=124	=124	=124	=124
8D 8DD'^/	8c 8F#'^\	.	2.r	(8.e^>/L	.	.
8r	8r	.	.	.	.	.
.	.	.	.	16d/Jk)	.	.
4r	4r	.	.	8d'/	.	.
.	.	.	.	8r	.	.
8D 8GG'/	8B 8G'\	.	.	(8.f#/L	.	.
8r	8r	.	.	.	.	.
.	.	.	.	16e/Jk)	.	.
!LO:LB:g=original	!	!	!	!	!	!
=125	=125	=125	=125	=125	=125	=125
8D 8DD'/	8c 8F#'\	.	2.r	8d'/	.	.
8r	8r	.	.	8r	.	.
8D 8GG'/	8B 8G'\	.	.	(8f#/L	.	.
8r	8r	.	.	8e/J	.	.
8D 8DD'/	8c 8F#'\	.	.	8d'/)	.	.
8r	8r	.	.	8r	.	.
=126	=126	=126	=126	=126	=126	=126
8D 8GG'/	8B 8G'\	.	2.r	(8f#/L	.	.
8r	8r	.	.	8e/J	.	.
8D 8DD'/	8c 8F#'\	.	.	8d'/)	.	.
8r	8r	.	.	8r	.	.
8D 8GG'/	8B 8G'\	.	.	(8f#/L	.	.
8r	8r	.	.	8e/J)	.	.
=127	=127	=127	=127	=127	=127	=127
!	!LO:TX:b:i:t=très long.	!	!	!LO:TX:b:i:t=très long.	!	!
2.r;	2.r;	.	2.r;	2.r;	.	.
=128||	=128||	=128||	=128||	=128||	=128||	=128||
*^	*	*	*	*	*	*
!	!	!	!	!	!LO:TX:b:i:t=espress.	!	!
!	!	!LO:TX:a:B:t=Un poco meno mosso.	!	!	!LO:TX:a:B:t=Un poco meno mosso.	!	!
4D/	2.DD\	4r	p	2.r	(8.d/L	.	mf
.	.	.	.	.	16e/Jk	.	<
4D/	.	4c 4A\	.	.	4f#/)	.	.
4D/	.	4c 4A\	.	.	(8f#/L	.	.
.	.	.	.	.	8a/J	.	.
*v	*v	*	*	*	*	*	*
=129	=129	=129	=129	=129	=129	=129
2.C 2.CC/	4r	.	2.r	8a-X/L)	.	.
.	.	.	.	16r	.	.
.	.	.	.	(16b-X/Jk	.	.
.	4e-X 4c 4A-X 4E-X\	.	.	[2cc\)	.	[[
.	4e- 4c 4A- 4E-\	.	.	.	.	.
!LO:LB:g=original	!	!	!	!LO:LB:g=original	!	!
=130	=130	=130	=130	=130	=130	=130
*^	*	*	*	*	*	*
4D/	2.DD\	4r	.	2.r	(8cc\L]	.	>
.	.	.	.	.	8bn\J)	.	.
.	.	.	.	.	(16qqan/LL	.	.
.	.	.	.	.	16qqb/JJ	.	.
4D/	.	4d 4c 4F#X\	.	.	(4a/)	.	.
4D/	.	4d 4c 4F#\	.	.	8g/L	.	.
.	.	.	.	.	8a/J	.	.
*v	*v	*	*	*	*	*	*
=131	=131	=131	=131	=131	=131	=131
2.GG/	4r	.	2.r	8b/L)	.	.
.	.	.	.	16r	.	.
.	.	.	.	(16g/Jk	.	.
.	4B 4G 4D\	.	.	8e/L)	.	.
.	.	.	.	16r	.	.
.	.	.	.	(16g/Jk	.	.
.	4B 4G 4D\	.	.	4d/)	.	]]
=132	=132	=132	=132	=132	=132	=132
*^	*	*	*	*	*	*
4D/	2.DD\	4r	.	2.r	(8.d/L	.	<
.	.	.	.	.	16e/Jk	.	.
4D/	.	4c 4A\	.	.	4f#/)	.	.
4D/	.	4c 4A\	.	.	(8f#/L	.	.
.	.	.	.	.	8a/J	.	.
*v	*v	*	*	*	*	*	*
=133	=133	=133	=133	=133	=133	=133
2.C 2.CC/	4r	.	2.r	8a-X/L)	.	.
.	.	.	.	16r	.	.
.	.	.	.	(16b-X/Jk	.	.
.	4e-X 4c 4A-X 4E-X\	.	.	[2cc\)	.	[[
.	4e- 4c 4A- 4E-\	.	.	.	.	.
=134	=134	=134	=134	=134	=134	=134
*^	*	*	*	*	*	*
4BBn/	2.BBBn\	4r	.	2.r	8cc\L]	.	>
.	.	.	.	.	(8bn\J	.	.
.	.	.	.	.	16qqan/LL	.	.
.	.	.	.	.	16qqb/JJ	.	.
4BB/	.	4Bn 4An 4D#X\	.	.	4a/	.	.
4BB/	.	4B 4A 4D#\	.	.	8g#X/L	.	.
.	.	.	.	.	8a/J	.	.
=135	=135	=135	=135	=135	=135	=135	=135
4r	2.EE\	4r	.	2.r	8b/L)	.	.
.	.	.	.	.	16r	.	.
.	.	.	.	.	(16g#X/Jk	.	.
4BB/	.	4B 4G#X 4En\	.	.	2e/)	.	]
4BB/	.	4B 4G# 4E\	.	.	.	.	.
*v	*v	*	*	*	*	*	*
!LO:LB:g=original	!	!	!LO:LB:g=original	!	!	!
=136||	=136||	=136||	=136||	=136||	=136||	=136||
*k[f#c#g#d#]	*k[f#c#g#d#]	*	*k[f#c#g#d#]	*k[f#c#g#d#]	*	*
!	!	!	!	!LO:TX:b:i:t=grazioso	!	!
2.BB 2.EE/	8.r	pp	2.r	8eeL 8cc#'\	.	p
.	.	.	.	16r	.	.
.	(16E\	.	.	(16eeJk 16cc#\	.	.
.	4B\	.	.	4b 4g#/	.	.
.	[4E\)	.	.	4ee 4cc#\	.	.
=137	=137	=137	=137	=137	=137	=137
2.BB 2.EE/	8.E\L]	.	2.r	8cc#L 8a'\)	.	<
.	.	.	.	16r	.	.
.	(16E\Jk	.	.	(16dd#Jk 16b\	.	.
.	4B\	.	.	4ee 4cc#\	.	.
.	[4E\)	.	.	4ff# 4dd#\	.	[[
=138	=138	=138	=138	=138	=138	=138
2.BB 2.EE/	8.E\L]	.	2.r	8eeL 8cc#'\)	.	>
.	.	.	.	16r	.	.
.	(16E\Jk	.	.	(16dd#Jk 16b\	.	.
.	4B\	.	.	4cc# 4a\	.	.
.	[4E\)	.	.	8dd#L 8b\	.	.
.	.	.	.	8eeJ 8cc#\	.	]]
=139	=139	=139	=139	=139	=139	=139
2.BB 2.EE/	8.E\L]	.	2.r	2.b 2.g#/)	.	.
.	(16E\Jk	.	.	.	.	.
.	4B\)	.	.	.	.	.
.	[4E\	.	.	.	.	.
=140	=140	=140	=140	=140	=140	=140
2.BB 2.EE/	8.E\L]	.	4r	8eeL 8cc#'\	.	.
.	.	.	.	16r	.	.
.	(16E\Jk	.	.	(16eeJk 16cc#\	.	.
.	4B\)	.	2e/	4b 4g#/	.	.
.	[4E\	.	.	4ee 4cc#\	.	.
=141	=141	=141	=141	=141	=141	=141
2.BB 2.EE/	8.E\L]	.	8a'\L	8cc#'\L)	.	<
.	.	.	16r	16r	.	.
.	(16E\Jk	.	(16b\K	(16dd#\K	.	.
.	4B\)	.	8cc#\	8ee\	.	.
.	.	.	8dd#\	8ff#\	.	.
.	[4E\	.	8ee\	8gg#\	.	.
.	.	.	8ff#\J	8aa\J	.	[[
!LO:LB:g=original	!	!	!LO:LB:g=original	!	!	!
=142	=142	=142	=142	=142	=142	=142
2.BB 2.EE/	8.E\L]	.	8.ee\L	8.gg#\L	.	>
!	!	!	!	!LO:TUP:a:problem=klamra łukowa	!	!
.	(16E\Jk	.	16dd#\Jk	48ff#\LL	.	.
!	!	!	!	!LO:TX:b:i:t=ad libitum	!	!
.	.	.	.	48gg#\	.	.
.	.	.	.	48ff#\JJJ	.	.
.	4B\	.	8cc#\L	8ee\L	.	.
.	.	.	8b\J	8dd#\J	.	.
!	!	!	!LO:TUP:a	!LO:TUP:a:problem=klamra łukowa	!	!
.	[4E\)	.	12a\L	12cc#\L	.	.
.	.	.	12b\	12dd#\	.	.
.	.	.	12cc#\J)	12ee\J)	.	]]
=143	=143	=143	=143	=143	=143	=143
.	.	.	8qcc#/	8qee/	.	.
2.BB 2.EE/	8.E\L]	.	2.g#/	2.b\	.	.
.	(16E\Jk	.	.	.	.	.
.	4B\	.	.	.	.	.
.	4E\)	.	.	.	.	.
=144	=144	=144	=144	=144	=144	=144
2.Dn 2.GGn/	2.r	.	8.r	(8bL 8fn/	.	.
.	.	.	.	16r	.	.
.	.	.	(16B/	16ccn/Jk	.	.
.	.	.	(2gn^>/)	4ddn\	.	.
.	.	.	.	8cc\L	.	.
.	.	.	.	8b\J	.	.
=145	=145	=145	=145	=145	=145	=145
2.BB 2.EE/	8.r	.	2.g#X^>/)	2.ee 2.e/)	.	.
.	(16E\	.	.	.	.	.
.	4B\	.	.	.	.	.
.	4E\)	.	.	.	.	.
=146	=146	=146	=146	=146	=146	=146
2.Dn 2.GGn/	2.r	.	8.r	(8bL 8fn/	.	pp
.	.	.	.	16r	.	.
.	.	.	16B/	16ccn/Jk	.	.
.	.	.	2gn^>/	4ddn\	.	.
.	.	.	.	8cc\L	.	.
.	.	.	.	8b\J	.	.
=147	=147	=147	=147	=147	=147	=147
2.BB 2.EE;</	8.r	.	2.g#X^>;</	2.ee 2.e;/)	.	.
.	(16E\	.	.	.	.	.
.	4B\	.	.	.	.	.
.	4E;\)	.	.	.	.	.
!LO:PB:g=original	!	!	!LO:PB:g=original	!	!	!
=148	=148	=148	=148	=148	=148	=148
2AA 2AAA/	4r	.	2.r	(8.g#/L	.	.
.	.	.	.	16f#/Jk	.	.
.	4A 4D# 4BB\	.	.	4c#/	.	.
4r	4A 4D# 4BB\	.	.	8.g#/L	.	.
.	.	.	.	16f#/Jk	.	.
=149	=149	=149	=149	=149	=149	=149
2GG# 2GGG#/	4r	.	2B/	2b\	.	.
.	(4A 4E 4BB\	.	.	.	.	.
4r	4G# 4E 4BB\)	.	4B/	4b\)	.	.
=150	=150	=150	=150	=150	=150	=150
!	!LO:TX:b:BI:t=cresc._:problem=dynamics with extention lines	!	!	!LO:TX:b:BI:t=cresc._:problem=dynamics with extention lines	!	!
2C# 2CC#/	4r	<	(8.B/L	(8.b/L	.	<
.	.	.	16A#X/Jk)	16a#X/Jk	.	.
.	4F##X 4D#\	.	4r	4d#/	.	.
4r	4F## 4D#\	.	4r	8.b/L	.	.
.	.	.	.	16a#/Jk	.	.
=151	=151	=151	=151	=151	=151	=151
2BB 2BBB/	4r	.	2d#/	2dd#\	.	.
.	(4c# 4G# 4D#\	.	.	.	.	.
4r	4B 4G# 4D#\)	[[	4d#/	4dd#\)	.	[[
=152	=152	=152	=152	=152	=152	=152
2.AA 2.AAA/	4r	f	4r	4r	.	f <
!	!	!	!	!LO:TX:b:i:t=appassionato	!	!
.	4d# 4B 4A\	.	(4f#/	(4ff# 4b\	.	.
.	4d# 4B 4A\	.	8.g#/L	8.gg#\L	.	.
.	.	.	16an/Jk	16aan\Jk	.	.
=153	=153	=153	=153	=153	=153	=153
2GG# 2GGG#/	4r	.	2b\	2bb 2ee\	.	.
.	4e 4B 4E\	.	.	.	.	.
4GGn 4GGGn/	8.d#L 8.B 8.Gn'\	.	8.dd#\L	8.ddd#\L	.	.
.	16e\Jk	.	16ee\Jk	16eee\Jk	.	[[
=154	=154	=154	=154	=154	=154	=154
2.FF# 2.FFF#/	4r	.	4.b\	4.bb\	.	.
.	4e 4cn 4F#\	.	.	.	.	.
.	.	.	8g#/L	8gg#\L	.	.
.	4e 4c#X 4F#\	.	8b/	8bb\	.	.
.	.	.	8a/J	8aa\J	.	.
=155	=155	=155	=155	=155	=155	=155
2.BB 2.BBB/	4r	>	2g#/	2gg#\	.	>
.	4e 4B 4A\	.	.	.	.	.
.	4d# 4B 4A\	]]	4f#/)	4ff#\)	.	]]
!	!	!	!LO:LB:g=original	!	!	!
=156	=156	=156	=156	=156	=156	=156
2.AA 2.AAA/	4r	mf	2.r	(8.g#/L	.	mf
.	.	.	.	16f#/Jk	.	.
.	4A 4D# 4BB\	.	.	4c#/	.	.
.	4A 4D# 4BB\	.	.	8.g#/L	.	.
.	.	.	.	16f#/Jk	.	.
!LO:LB:g=original	!	!	!	!	!	!
=157	=157	=157	=157	=157	=157	=157
2GG# 2GGG#/	(8.AL 8.E 8.BB\	.	2B/	2b\	.	.
.	16G#\Jk	.	.	.	.	.
.	4BB/	.	.	.	.	.
4BB/	8.AL 8.E\	.	4B/	4b\)	.	.
.	16G#\Jk)	.	.	.	.	.
=158	=158	=158	=158	=158	=158	=158
!	!	!	!	!LO:TX:b:BI:t=cresc._:problem=dynamics with extention lines	!	!
2C# 2CC#/	4r	<	(8.B/L	(8.b/L	.	<
.	.	.	16A#X/Jk)	16a#X/Jk	.	.
.	4F##X 4D#\	.	4r	4d#/	.	.
4r	4F## 4D#\	.	4r	8.b/L	.	.
.	.	.	.	16a#/Jk	.	.
=159	=159	=159	=159	=159	=159	=159
2BB 2BBB/	(8.c#L 8.G# 8.D#\	.	2d#/	2dd#\	.	.
.	16B\Jk	.	.	.	.	.
.	4D#\	.	.	.	.	.
4D#\	8.c#L 8.G#\	.	4d#/	4dd#\)	.	.
.	16B\Jk)	.	.	.	.	.
=160	=160	=160	=160	=160	=160	=160
2AA 2AAA/	4r	sf	4r	4r	.	.
.	4d# 4B 4A\	.	(4f#/	(4ff# 4b\	.	[ f
4r	4d# 4B 4A\	.	8.g#/L	8.gg#\L	.	.
.	.	.	16a/Jk	16aa\Jk	.	.
=161	=161	=161	=161	=161	=161	=161
2GG# 2GGG#/	4r	<	2b\	2bb 2ee\	.	.
.	4d# 4B\	.	.	.	.	.
4r	4e 4B 4G#\	.	8.dd#\L	8.ddd#\L	.	.
.	.	.	16ee\Jk)	16eee\Jk)	.	.
=162	=162	=162	=162	=162	=162	=162
2FF##X 2FFF##X/	4r	.	(4dd#\	(4ddd#\	.	<
.	4d# 4c# 4A#X 4D#\	.	4a#X/	4aa#X\	.	.
4r	4d# 4c# 4A# 4D#\	.	8.b\L	8.bb\L	.	.
.	.	.	16cc#\Jk	16ccc#\Jk	.	.
=163	=163	=163	=163	=163	=163	=163
2GG# 2GGG#/	4r	.	4dd#\	2ddd#\	.	.
.	4d# 4B 4G# 4D#\	.	4b 4g#/	.	.	.
4r	4d# 4B 4G# 4D#\	.	4b 4g#/)	8.fff##XL 8.ff##X\	.	.
.	.	.	.	16ggg#Jk 16gg#\)	.	[[
*	*clefG2	*	*	*	*	*
!	!	!	!LO:LB:g=original	!	!	!
=164	=164	=164	=164	=164	=164	=164
2AA 2AAA/	4r	ff	(8.g#/L	(8.ggg#L 8.gg#\	.	ff
!	!	!	!	!LO:TX:b:i:t=con passione	!	!
.	.	.	16f#/Jk	16fff#Jk 16ff#\	.	.
.	4d# 4B 4A/	.	4cc#\	4ccc#\	.	.
4r	4d# 4B 4A/	.	8.g#/L	8.gg#\L	.	.
.	.	.	16f#/Jk	16ff#\Jk	.	.
!LO:LB:g=original	!	!	!	!	!	!
=165	=165	=165	=165	=165	=165	=165
2GG# 2GGG#/	4r	.	2b 2g#/	2bb 2ee\	.	.
.	4e 4B 4G#/	<	.	.	.	.
4r	4e 4B#X 4G#/	.	[4b#X 4g#/	[4bb#X 4ee\	.	.
=166	=166	=166	=166	=166	=166	=166
4GGn 4GGGn/	4e 4A#X/	.	8b#\L]	8bb#\L]	.	.
.	.	.	8cc#\J	8ccc#\J	.	.
2FF# 2FFF#^>/	4e 4An/	[	4.dd# 4.an\	4.ddd# 4.aan^\	.	.
.	4e 4A 4F#/	.	.	.	.	.
.	.	.	8cc#\)	8ccc#\)	.	.
=167	=167	=167	=167	=167	=167	=167
2.BB 2.BBB/	4r	sf	(2cc#\	(2ccc#\	.	>
.	4e 4A 4F#/	.	.	.	.	.
.	4d# 4A 4F#/	.	4bn\)	4bbn\)	.	]]
*	*clefF4	*	*	*	*	*
=168	=168	=168	=168	=168	=168	=168
2C# 2CC#/	4r	.	(8.b/L	8.bb\L	.	.
.	.	.	16a#X/Jk)	16aa#X\Jk	.	.
.	4d# 4F##X 4D#\	.	4r	4dd#\	.	.
4r	4d# 4F## 4D#\	.	(8.b/L	8.bb\L	.	.
.	.	.	16a#/Jk	16aa#\Jk	.	.
*	*clefG2	*	*	*	*	*
=169	=169	=169	=169	=169	=169	=169
*	*	*	*	*^	*	*
!	!	!	!	!	!LO:N:vis=2	!	!
2BB 2BBB/	4r	.	2dd#\	2ddd#/	4ddd#\	.	.
.	4g# 4B 4G#/	.	.	.	4gg#\	.	.
4BB 4BBB/	4g# 4B 4G#/	.	[4ee 4b\)	[4eee/	4gg#\	.	.
*	*	*	*	*v	*v	*	*
=170	=170	=170	=170	=170	=170	=170
2.AA#X 2.AAA#X/	4a#X 4c##X 4A#X^>/	.	8ee\L]	8eee\L]	.	<
.	.	.	(8ee#X\J	(8eee#X\J	.	.
.	4an 4c## 4A#^>/	.	4.ff#^\	4.fff#^\	.	.
.	4g# 4c## 4A#^>/	.	.	.	.	.
.	.	.	8cc##X\	8ccc##X\	.	[
=171	=171	=171	=171	=171	=171	=171
2.D# 2.DD#/	4r	.	2ee#X\	2eee#X\	.	>
.	4g# 4d# 4A#X/	.	.	.	.	.
.	4f# 4d# 4A#/	.	4dd#\)	4ddd#\)	.	]]
*	*clefF4	*	*	*	*	*
!	!	!	!LO:LB:g=original	!	!	!
=172	=172	=172	=172	=172	=172	=172
*^	*	*	*	*	*	*
!	!	!	!	!	!LO:TX:b:t=sempre	!	!
4E/	2.EE\	4r	.	(8.dd#\L	(8.ddd#\L	.	ff
.	.	.	.	16cc#\Jk	16ccc#\Jk	.	.
4r	.	4e 4A#X 4F# 4E\	.	4g#/	4gg#\	.	.
4r	.	4e 4A# 4F# 4E\	.	8.dd#\L	8.ddd#\L	.	.
.	.	.	.	16cc#\Jk	16ccc#\Jk	.	.
*v	*v	*	*	*	*	*	*
!LO:LB:g=original	!	!	!	!	!	!
=173	=173	=173	=173	=173	=173	=173
2D#X 2DD#X/	4r	<	2f#/	2fff# 2ff#\	.	.
.	4B 4F#^\	.	.	.	.	.
4Dn 4DDn/	4fn 4B 4Gn^\	[[	4gn/)	4gggn 4ggn\)	.	.
=174	=174	=174	=174	=174	=174	=174
2C# 2CC#/	4r	.	8r	8r	.	<
.	.	.	8g#/	8ggg# 8gg#\	.	.
.	4e 4A#X 4F#\	.	4.a#X^>/	4.aaa#X 4.aa#X^\	.	.
4r	4e 4A# 4F#\	.	.	.	.	.
.	.	.	8g#/	8ggg# 8gg#\	.	[
=175	=175	=175	=175	=175	=175	=175
2D# 2DD#/	4r	.	(2g#^>/	(2ggg# 2gg#^\	.	>
.	4d# 4B 4F#\	.	.	.	.	.
4r	4d# 4B 4F#\	.	4f#/)	4fff# 4ff#\)	.	]]
=176	=176	=176	=176	=176	=176	=176
*^	*	*	*	*	*	*
4E/	2.EE\	4r	.	(8.dd#\L	(8.ddd#\L	.	<
.	.	.	.	16cc#\Jk	16ccc#\Jk	.	.
4r	.	4e 4A#X 4F# 4E\	.	4g#/	4gg#\	.	.
4r	.	4e 4A# 4F# 4E\	.	8.dd#\L	8.ddd#\L	.	.
.	.	.	.	16cc#\Jk	16ccc#\Jk	.	.
*v	*v	*	*	*	*	*	*
=177	=177	=177	=177	=177	=177	=177
2D# 2DD#/	4r	.	2f#^>/	2fff# 2ff#^\	.	.
.	4B 4F#^\	.	.	.	.	.
4Dn 4DDn/	4fn 4B 4Gn^\	.	4gn^>/)	4gggn 4ggn^\)	.	.
=178	=178	=178	=178	=178	=178	=178
4C# 4CC#/	8r	.	8r	8r	.	.
.	(8B#X\L	<	(8gg#X\L	(8ggg#X\L	.	.
4G# 4E\	8c#\	.	8bb^\	8bbb^\	.	[
.	8e\	.	8gg#\	8ggg#\	.	.
*	*clefG2	*	*	*	*	*
4c# 4G# 4E\	8g#X\	.	8ee\	8eee\	.	.
.	8bn\J)	.	8cc#\J	8ccc#\J	.	.
=179	=179	=179	=179	=179	=179	=179
4D# 4DD#/	2b^\	.	2gg#\	2ggg#\	.	.
4d# 4B 4F#\	.	[	.	.	.	.
4d# 4B 4F#\	4f#/	.	4ff#\)	4fff#\)	.	.
*	*clefF4	*	*	*	*	*
!	!	!	!LO:LB:g=original	!	!	!
=180	=180	=180	=180	=180	=180	=180
!	!LO:TX:b:BI:t=dim._:problem=dynamics with extention lines	!	!	!LO:TX:b:BI:t=poco a poco dim._:problem=dynamics with extention lines	!	!
2E 2EE/	4r	>	(8.dd#\L	(8.ddd#\L	.	>
.	.	.	16cc#\Jk	16ccc#\Jk	.	.
.	4e 4c# 4G#\	.	4g#/	4gg#\	.	.
4r	4e 4c# 4G#\	]]	8.dd#\L	8.ddd#\L	.	.
.	.	.	16cc#\Jk)	16ccc#\Jk)	.	.
!LO:LB:g=original	!	!	!	!	!	!
=181	=181	=181	=181	=181	=181	=181
4D# 4DD#/	8r	p	(2cc#\	(2ccc#\	.	.
.	(8E#X\L	<	.	.	.	.
4D#\	8F#\	.	.	.	.	.
.	8B\	.	.	.	.	.
4B 4F#\	8d#\	.	4b\)	4bb\)	.	.
.	8f#\J	[[	.	.	.	.
=182	=182	=182	=182	=182	=182	=182
4C# 4CC#/	2f##X\	.	(8.b/L	(8.bb\L	.	.
.	.	.	16a#X/Jk)	16aa#X\Jk	.	.
4c# 4D#\	.	.	4r	4dd#\	.	.
4c# 4F##X 4D#\	[4d#\)	.	(8.b/L	8.bb\L	.	.
.	.	.	16a#/Jk)	16aa#\Jk)	.	.
=183	=183	=183	=183	=183	=183	=183
4BB 4BBB/	(8d#\L]	.	(2a#X/	(2aa#X\	.	.
.	8C##X\	.	.	.	.	.
4BB/	8D#\	.	.	.	.	.
.	8G#\	.	.	.	.	.
4G# 4D#\	8B\	.	4g#/)	4gg#\)	.	]]
.	8d#\J)	.	.	.	.	.
=184	=184	=184	=184	=184	=184	=184
2AA#X 2AAA#X/	4r	.	4r	(8.dd#\L	.	p
.	.	.	.	16cc#\Jk	.	.
.	4c# 4G# 4E\	.	4r	4g#/	.	.
4AA# 4AAA#/	4e 4c# 4G# 4E\	.	4g#/	8.dd#\L	.	.
.	.	.	.	16cc#\Jk)	.	.
=185	=185	=185	=185	=185	=185	=185
4BB 4BBB/	(8d#\L	.	[2g#/	(2cc#\	.	.
.	8C##X\	.	.	.	.	.
4BB/	8D#\	.	.	.	.	.
.	8G#\	.	.	.	.	.
4G# 4D#\	8B\J)	.	8g#/L]	4b\)	.	.
.	8r	.	8d#/J	.	.	.
=186	=186	=186	=186	=186	=186	=186
(2C# 2CC#/	4r	pp	4e/	(8.b/L	.	pp
.	.	.	.	16a#X/Jk	.	.
.	4A#X 4F##X\	.	8r	4d#X/	.	.
.	.	.	(8dn/	.	.	.
4D# 4DD#/	4A# 4F##\	.	[4c#/)	8.b/L	.	.
.	.	.	.	16a#/Jk)	.	.
=187	=187	=187	=187	=187	=187	=187
2E 2EE/	4r	.	4c#/]	(2a#X/	.	.
.	4B\	.	4c#/	.	.	.
4E#X 4EE#X;/)	4B;\	.	4dn;/	4g#;/)	.	.
!LO:PB:g=original	!	!	!LO:PB:g=original	!	!	!
=188	=188	=188	=188	=188	=188	=188
!	!LO:TX:a:B:t=Tranquillo.	!	!	!	!	!
!	!LO:TX:b:i:t=legato	!	!	!LO:TX:a:B:t=Tranquillo.	!	!
(2.En 2.EEn/	2.A#X 2.F#\	pp	4c#/	(8.g#/L	.	p
.	.	.	.	16f#/Jk	.	.
.	.	.	2c#/	4c#/	.	.
.	.	.	.	8.g#/L	.	.
.	.	.	.	16f#/Jk	.	.
=189	=189	=189	=189	=189	=189	=189
*	*^	*	*	*	*	*
2.D# 2.DD#/	2B/	2.F#\	.	2.f#/	2b\)	.	.
.	4B/	.	.	.	4b\	.	.
=190	=190	=190	=190	=190	=190	=190	=190
2.C# 2.CC#/	2.B/	2F##X\	.	4d#/	(8.b/L	.	.
.	.	.	.	.	16a#X/Jk	.	.
.	.	.	.	2d#/	4d#X/	.	.
.	.	4D#\	.	.	8.b/L	.	.
.	.	.	.	.	16a#/Jk	.	.
*	*v	*v	*	*	*	*	*
=191	=191	=191	=191	=191	=191	=191
2.BB 2.BBB/	2A#X 2D#\	.	2d#/	2dd# 2a#X\)	.	.
.	4B 4G#\	.	4d#/	4dd# 4g#\	.	.
=192	=192	=192	=192	=192	=192	=192
2.AA 2.AAA/	2.c# 2.F# 2.D#\	.	4r	4r	.	.
.	.	.	4f#/	(4ff# 4cc#\	.	<
.	.	.	8.g#/L	8.gg#\L	.	.
.	.	.	16an/Jk	16aan\Jk	.	.
=193	=193	=193	=193	=193	=193	=193
2.GG# 2.GGG#/)	2.B 2.E\	.	2b 2e/	2bb 2ee\	.	.
.	.	.	8.dd#\L	8.ddd#\L	.	.
.	.	.	16ee\Jk	16eee\Jk	.	[[
=194	=194	=194	=194	=194	=194	=194
(2GGn 2GGGn/	2B 2Gn\	.	4.b 4.e/	4.bb 4.ee\	.	>
.	.	.	8gn/L	8ggn\L	.	.
4FF# 4FFF#/	4B 4F#\	.	8b 8e/	8bb 8ee\	.	.
.	.	.	8a/J	8aa\J	.	.
!	!	!	!LO:LB:g=original	!	!	!
=195	=195	=195	=195	=195	=195	=195
2.GGn 2.GGGn/)	4r	.	2f# 2e/	2ff# 2ee 2b\	.	.
.	2B 2BB^\	.	.	.	.	.
.	.	.	4gn/	4ggn\)	.	]]
=196	=196	=196	=196	=196	=196	=196
(2GGn 2GGGn/	2B 2Gn\	.	2e/	(4.b/	.	pp
.	.	.	.	8gn/L	.	.
4FF# 4FFF#/	4B 4F#\	.	4e/	8b/	.	.
.	.	.	.	8a/J	.	.
=197	=197	=197	=197	=197	=197	=197
2.GGn 2.GGGn/)	4r	.	2.e 2.B/	2f#/	.	.
.	2BB^/	.	.	.	.	.
.	.	.	.	4gn/)	.	.
!LO:LB:g=original	!	!	!	!	!	!
=198	=198	=198	=198	=198	=198	=198
!	!LO:TX:b:BI:t=poco a poco cresc. ed acceler.:problem=dynamics with extention lines	!	!	!LO:TX:b:BI:t=poco a poco cresc. ed acceler.:problem=dynamics with extention lines	!	!
4r	4.e 4.B^\	<	4r	4.ee 4.b^\	.	<
8r	.	.	8r	.	.	.
(8Gn\L	8r	.	(8gn/L	8r	.	.
8B\	4r	.	8b/	4r	.	.
8A\J	.	.	8a/J	.	.	.
=199	=199	=199	=199	=199	=199	=199
8Gn'\)	(8.eL 8.B^\	.	8gn'/)	(8.eeL 8.b/	.	.
8r	.	.	8r	.	.	.
.	16F#\Jk	.	.	16f#/Jk	.	.
4r	8Gn'\)	.	4r	8gn'/)	.	.
.	8r	.	.	8r	.	.
8BB 8BBB'^>/	4r	[[	4r	4r	.	.
8r	.	.	.	.	.	.
=200	=200	=200	=200	=200	=200	=200
4r	4.e 4.B^\	.	4r	4.ee 4.b^\	.	.
8r	.	.	8r	.	.	.
(8Gn\L	8r	.	(8gn/L	8r	.	[
8B\	4r	.	8b/	4r	.	.
8A\J	.	.	8a/J	.	.	.
=201	=201	=201	=201	=201	=201	=201
8Gn'\)	(8.eL 8.B^\	.	8gn'/)	(8.eeL 8.b^/	.	.
8r	.	.	8r	.	.	.
.	16F#\Jk	.	.	16f#/Jk	.	.
4r	8Gn'\)	.	4r	8gn'/)	.	.
.	8r	.	.	8r	.	.
8BB 8BBB'^>/	4r	.	4r	4r	.	.
8r	.	.	.	.	.	.
!	!	!	!LO:LB:g=original	!	!	!
=202	=202	=202	=202	=202	=202	=202
!	!LO:SIC:v:n=2:s=8.Gn\	!	!	!	!	!
4r	(8.BnL 8.G#^\	.	(8.e^/L	4ee 4b 4gn\	.	.
.	16F#\Jk	.	16f#/Jk	.	.	.
!	!LO:SIC:v::s=8.Gn\)	!	!	!	!	!
4r	8G#\)	.	8gn'/)	4r	.	.
.	8r	.	8r	.	.	.
8F# 8FF#'^>/	4r	.	4r	8f#'/	.	.
8r	.	.	.	8r	.	.
!LO:LB:g=original	!	!	!	!	!	!
=203	=203	=203	=203	=203	=203	=203
4r	(8.BL 8.Gn^\	.	(8.e^/L	4ee 4b 4gn\	.	.
.	16F#\Jk	.	16f#/Jk	.	.	.
4r	8G\)	.	8gn'/)	4r	.	.
.	8r	.	8r	.	.	.
8BB 8BBB'^>/	8B'^\	.	4r	4r	.	.
8r	8r	.	.	.	.	.
=204	=204	=204	=204	=204	=204	=204
4r	(8.BL 8.Gn^\	.	(8.e^/L	4ee 4b 4gn\	.	.
.	16F#\Jk	.	16f#/Jk	.	.	.
4r	8G\)	.	8gn'/)	4r	.	.
.	8r	.	8r	.	.	.
8Cn 8CCn'^>/	8cn'^\	.	4r	4r	.	.
8r	8r	.	.	.	.	.
=205	=205	=205	=205	=205	=205	=205
4r	(8.BL 8.Gn^\	.	(8.e^/L	4ee 4b 4gn\	.	.
.	16F#\Jk	.	16f#/Jk	.	.	.
4r	8G\)	.	8gn'/)	4r	.	.
.	8r	.	8r	.	.	.
8C#X 8CC#X'/	8c#X'^\	.	4r	4r	.	.
8r	8r	.	.	.	.	.
=206||	=206||	=206||	=206||	=206||	=206||	=206||
*k[cngndnf#]	*k[cngndnf#]	*	*k[cngndnf#]	*k[cngndnf#]	*	*
!	!LO:TX:a:B:t=Tempo I.	!	!	!LO:TX:a:B:t=Tempo I.	!	!
4D 4DD`/	4c 4A`\	f	4f# 4e`/	4ee`\	.	f
2D 2DD^/	2c 2A^\	sf	4f#^/	(8dd^/L	.	sf
.	.	.	.	8cc/	.	.
!	!	!	!	!LO:TX:a:i:t=m.g.	!	!
.	.	.	4r	8e/	.	.
.	.	.	.	8f#/J	.	.
!	!	!	!LO:LB:g=original	!	!	!
=207	=207	=207	=207	=207	=207	=207
4D 4GG^/	4d 4B^\	p	4r	8g'/L)	.	.
.	.	.	.	16r	.	.
.	.	.	.	(16a/Jk	.	.
4r	4r	.	4r	8b'\)	.	.
.	.	.	.	8r	.	.
4C#X 4CC#X'/	4G'\	.	4e 4B'/	4g'/	.	p
!LO:LB:g=originals	!	!	!	!	!	!
=208	=208	=208	=208	=208	=208	=208
4r	4r	.	4r	8a'/L	.	.
.	.	.	.	16r	.	.
.	.	.	.	(16b/Jk	.	<
4r	4r	.	4r	8ccn'\)	.	.
.	.	.	.	8r	.	.
!	!LO:TX:b:BI:t=cresc._:problem=dynamics with extention lines	!	!	!	!	!
4Cn 4CCn'/	4A'\	<	4f# 4d'/	4a'/	.	.
=209	=209	=209	=209	=209	=209	=209
4r	4r	.	4r	8b'\L	.	.
.	.	.	.	16r	.	.
.	.	.	.	(16cc\Jk	.	.
4r	4r	.	4r	8dd'\)	.	.
.	.	.	.	8r	.	.
4BB 4BBB'/	4B 4G'\	[[	4g 4d'/	4b'\	.	.
=210	=210	=210	=210	=210	=210	=210
4r	4r	.	4r	8cc#X'\L	.	f
.	.	.	.	16r	.	.
.	.	.	.	(16dd\Jk	.	.
4r	4r	.	4r	8ee\)	.	.
.	.	.	.	8r	.	.
4AA 4AAA'/	4e 4c#X 4G'\	f	4g'/	4gg 4cc#'\	.	.
=211	=211	=211	=211	=211	=211	=211
(2BB 2BBB/	4r	.	(2g^>/	(4.gg 4.dd^\	.	.
.	(4d 4D^\	>	.	.	.	.
.	.	.	.	8dd\L	.	.
4AA#X 4AAA#X/)	4c#X 4G'\)	]]	8f#'/L)	8ff# 8cc#X 8g'^\)	.	.
.	.	.	16r	16r	.	.
.	.	.	16e/Jk	16ee\Jk	.	.
=212	=212	=212	=212	=212	=212	=212
(2BB 2BBB/	4r	.	4e^/	(4.ee 4.g^\	.	<
.	(4d 4D^\	<	4r	.	.	.
.	.	.	.	8dd\L	.	.
4AA#X 4AAA#X/)	4c#X 4G'\)	.	8f#'/L	8ff# 8cc#X 8g'\)	.	.
.	.	.	16r	16r	.	.
.	.	.	16e/Jk	16ee\Jk	.	[[
!	!	!	!LO:LB:g=original	!	!	!
=213	=213	=213	=213	=213	=213	=213
(2BB 2BBB/	4r	.	4e^/	(4.ee 4.g^\	.	<
.	(4d 4D^\	.	4r	.	.	.
.	.	.	.	8dd\L	.	.
4AAn 4AAAn/)	4c#X 4G'\)	[[	8f#'/L	8ff# 8cc#X 8g'\)	.	.
.	.	.	16r	16r	.	.
.	.	.	16e/Jk	16ee\Jk	.	[[
=214	=214	=214	=214	=214	=214	=214
4D 4DD'/	4cn 4A'\	.	4e'/	4ee'\	.	.
2D 2DD^/	2c 2A^\	sf	4f#^/	(8dd^/L	.	sf
.	.	.	.	8ccn/	.	.
.	.	.	4r	8e/	.	.
!	!	!	!	!LO:TX:a:i:t=m.g.	!	!
.	.	.	.	8f#/J	.	.
!LO:LB:g=original	!	!	!	!	!	!
=215	=215	=215	=215	=215	=215	=215
4D 4GG'/	4d 4B'\	.	4r	8g'/L)	.	.
.	.	.	.	16r	.	.
.	.	.	.	(16a/Jk	.	.
4r	4r	.	4r	8b'\)	.	.
.	.	.	.	8r	.	.
4E 4EE'/	4G'\	p	4e 4B'/	4g'/	.	p
=216	=216	=216	=216	=216	=216	=216
4r	4r	.	4r	8a/L	.	<
.	.	.	.	16r	.	.
.	.	.	.	(16b/Jk	.	.
4r	4r	.	4r	8cc'\)	.	.
.	.	.	.	8r	.	.
!	!LO:TX:b:BI:t=cresc._:problem=dynamics with extention lines	!	!	!	!	!
4E-X 4EE-X'/	4A 4F#'\	<	4f# 4c'/	4a'/	.	.
=217	=217	=217	=217	=217	=217	=217
4r	4r	.	4r	8b'\L	.	.
.	.	.	.	16r	.	.
.	.	.	.	(16cc\Jk	.	.
4r	4r	.	4r	8ddn'\)	.	.
.	.	.	.	8r	.	.
4D 4DD'/	4B 4G'\	.	4g 4d'/	4b'\	.	.
!	!	!	!LO:LB:g=original	!	!	!
=218	=218	=218	=218	=218	=218	=218
4r	4r	.	4r	8cc#X'\L	.	<
.	.	.	.	16r	.	.
.	.	.	.	(16dd\Jk	.	.
4r	4r	.	4r	8ee'\)	.	.
.	.	.	.	8r	.	.
4E 4EE'/	4c#X 4A 4G'\	[[	4cc#X 4g'/	4gg'\	.	[[
=219	=219	=219	=219	=219	=219	=219
2D 2DD^/	2d 2B 2G^\	f	(4b^\	(4bb^\	.	f
.	.	.	8g'/)	8gg'\L)	.	.
.	.	.	8r	16r	.	.
.	.	.	.	(16dd\K	.	.
4Cn 4CCn'/	4d 4A'\	.	8f#'/L	8ff#'\)	.	.
.	.	.	16r	16r	.	.
.	.	.	(16a/Jk	(16aa\Jk	.	.
=220	=220	=220	=220	=220	=220	=220
2BB 2BBB^/	2d 2G^\	.	4g^/)	4gg 4dd^<\	.	.
.	.	.	4r	8dd'\L)	.	.
.	.	.	.	16r	.	.
.	.	.	.	(16g\K	.	.
4BB-X 4BBB-X'/	4G'\	.	8c#X'/L	8cc#X'\)	.	.
.	.	.	16r	16r	.	.
.	.	.	16e/Jk	16ee\Jk	.	.
=221	=221	=221	=221	=221	=221	=221
4AA 4AAA'/	4c#X 4G'\	.	4e'/	4ee'\	.	.
!	!	!	!	!LO:TX:t=P:problem=mixed beam	!	!
2D 2DD^/	2cn 2A^\	.	4f#^/	(8dd^\L	.	sf
.	.	.	.	8ccn\J	.	.
!	!	!	!LO:TX:a:t=P:problem= belka między kernami	!	!	!
.	.	.	8f#/L	4r	.	.
.	.	.	8a/J	.	.	.
=222	=222	=222	=222	=222	=222	=222
2D 2GG^/	2B 2G^\	.	8g/L)	4r	.	.
.	.	.	16r	.	.	.
.	.	.	(16f#/Jk	.	.	.
.	.	.	8g'/)	4r	.	.
.	.	.	8r	.	.	.
4GG 4GGG'/	4d 4B 4G'\	sf	4b 4g'^/	4gg 4dd'^\	.	.
!LO:PB:g=original	!	!	!LO:PB:g=original	!	!	!
=223||	=223||	=223||	=223||	=223||	=223||	=223||
*k[fnb-e-a-]	*k[fnb-e-a-]	*	*k[fnb-e-a-]	*k[fnb-e-a-]	*	*
4.FF 4.FFF/	(4.c 4.A-^\	sf	(4.a- 4.e-^/	4.aa- 4.ee-^\	.	sf
8r	8B-\L	ff	8b-/L	8r	.	.
4r	8A-\	.	8a-/	4r	.	.
.	8E-\J	.	8e-/J	.	.	.
=224	=224	=224	=224	=224	=224	=224
2.r	8C\L)	<	8c/L)	2.r	.	.
.	16r	.	16r	.	.	.
.	16E-\Jk	.	(16e-/Jk	.	.	.
.	4A-`^\	.	4a-'^>/)	.	.	.
.	4B-`^\	[[	4b-'^\	.	.	.
=225	=225	=225	=225	=225	=225	=225
!	!LO:TX:t=P:problem=mixed beam	!	!	!	!	!
4r	(8c^\L	<	8r	8cc\L	.	<
.	8B-\	.	(8e-/L	8ee-\	.	.
8r	8A-\J	.	8a-/	8aa-\	.	.
!LO:TX:a:t=P:problem= belka między kernami	!	!	!	!	!	!
8E-/L	8r	.	8b-/	8bb-\	.	.
8A-/	4r	.	8cc/	8ccc\	.	.
8B-/J)	.	[[	8ee-/J)	8eee-\J	.	[[
*	*clefG2	*	*	*	*	*
=226	=226	=226	=226	=226	=226	=226
*	*	*	*	*8va	*	*
4c 4F\	8a-L 8e-'/	.	8aa-L 8ee-'\	8aaa-L 8eee-'\	.	ff
.	8a-J 8e-'/	.	8aa-J 8ee-'\	8aaa-J 8eee-'\	.	.
4r	4a- 4e-'/	.	4aa- 4ee-'\	4aaa- 4eee-'\	.	.
*	*clefF4	*	*	*	*	*
*	*	*	*	*X8va	*	*
4FF 4FFF'/	4c 4A-'\	.	4r	4r	.	.
=227	=227	=227	=227	=227	=227	=227
4.FF 4.FFF/	(4.c 4.A-^\	sf	(4.a- 4.e-^/	4.aa- 4.ee-^\	.	sf
8r	8B-\L	.	8b-/L	8r	.	.
4r	8A-\	.	8a-/	4r	.	.
.	8E-\J	.	8e-/J	.	.	.
=228	=228	=228	=228	=228	=228	=228
2.r	8C\L)	<	8c'/L)	2.r	.	.
.	16r	.	16r	.	.	.
.	(16E-\Jk	.	(16e-/Jk	.	.	.
.	4A-`^\)	.	4a-'^>/)	.	.	.
.	4B-`^\	[[	4b-'^>/	.	.	.
!LO:LB:g=original	!	!	!LO:LB:g=original	!	!	!
=229	=229	=229	=229	=229	=229	=229
(4.AA-^/	(4.A-^\	sf	8r	(8cc\L	.	.
.	.	.	(8e-/L	8ee-\	.	.
.	.	.	8a-/	8aa-\	.	.
8BB-/L	8B-\L	.	8b-/	8bb-\	.	.
8AA-/	8A-\	.	8cc/	8ccc\	.	.
8EE-/J	8E-\J	.	8ee-/J)	8eee-\J)	.	.
=230	=230	=230	=230	=230	=230	=230
*	*	*	*	*8va	*	*
8CC/L)	8C\L)	<	8ee-L 8a-'\	8aaa-L 8eee- 8aa-'\	.	.
16r	16r	.	8ee-J 8a-'\	8aaa-J 8eee- 8aa-'\	.	.
(16EE-/Jk	(16E-\Jk	.	.	.	.	.
4AA-`/)	4A-'\)	.	4ee- 4a-'\	4aaa- 4eee- 4aa-'\	.	.
*	*	*	*	*X8va	*	*
4BB-`/	4B-'\	[[	4r	4r	.	.
=231	=231	=231	=231	=231	=231	=231
!	!LO:TX:b:i:t=feroce	!	!	!	!	!
!	!LO:TX:b:i:t=sempre	!	!	!	!	!
4FF 4FFF'/	(4..c 4..A-^\	ff	4r	4r	.	.
*	*	*	*	*8va	*	*
!	!	!	!	!LO:TX:b:t=sempre	!	!
4r	.	.	4ee- 4a-'\	4aaa- 4eee- 4aa-'\	.	ff
.	16d\KL	.	.	.	.	.
4FF 4FFF'/	8e-'\)	.	4ee- 4a-'\	4aaa- 4eee- 4aa-'\	.	.
.	16r	.	.	.	.	.
.	(16d\Jk	.	.	.	.	.
=232	=232	=232	=232	=232	=232	=232
4FF 4FFF'/	8cL 8A-\)	.	4r	4r	.	.
.	16r	.	.	.	.	.
.	(16E-\Jk	.	.	.	.	.
4r	4c'^\)	.	4ee- 4a-'\	4aaa- 4eee- 4aa-'\	.	.
4FF 4FFF'/	4B-'^\	.	4ee- 4a-'\	4aaa- 4eee- 4aa-'\	.	.
=233	=233	=233	=233	=233	=233	=233
4FF 4FFF'/	(4.A- 4.E-^\	<	4r	4r	.	.
4r	.	.	4ee- 4a-'\	4aaa- 4eee- 4aa-'\	.	.
.	8B-\L	.	.	.	.	.
4FF 4FFF'/	8E-\	.	4ee- 4a-'\	4aaa- 4eee- 4aa-'\	.	.
.	8A-\J)	.	.	.	.	.
=234	=234	=234	=234	=234	=234	=234
4FF 4FFF'/	(8.dL 8.B-^\	.	4r	4r	.	.
.	16cJk 16A-\)	[	.	.	.	.
4r	4c 4A-\	.	4ee- 4a-'\	4aaa- 4eee- 4aa-'\	.	.
4FF 4FFF'/	4r	.	4ee- 4a-'\	4aaa- 4eee- 4aa-'\	.	.
=235	=235	=235	=235	=235	=235	=235
4FF 4FFF'/	(4.c 4.A-^\	sf	4r	4r	.	.
4r	.	.	4ee- 4a-'\	4aaa- 4eee- 4aa-'\	.	.
.	8d\L	.	.	.	.	.
4FF 4FFF'/	8f 8d\	.	4ee- 4a-'\	4aaa- 4eee- 4aa-'\	.	.
.	8e-J 8c\	.	.	.	.	.
!LO:LB:g=original	!	!	!LO:LB:g=original	!	!	!
=236	=236	=236	=236	=236	=236	=236
4FF 4FFF'/	8dL 8B-\)	.	4r	4r	.	.
.	16r	.	.	.	.	.
.	(16E-\Jk	.	.	.	.	.
4r	4d 4B-`^\)	.	4ee- 4a-'\	4aaa- 4eee- 4aa-'\	.	.
4FF 4FFF'/	4c 4A-'^\	.	4ee- 4a-'\	4aaa- 4eee- 4aa-'\	.	.
=237	=237	=237	=237	=237	=237	=237
4FF 4FFF'/	4.B- 4.E-^\	sf <	4r	4r	.	.
4r	.	.	4ee- 4a-'\	4aaa- 4eee- 4aa-'\	.	.
.	8E-\L	.	.	.	.	.
4FF 4FFF'/	8A-\	.	4ee- 4a-'\	4aaa- 4eee- 4aa-'\	.	.
.	8B-\J	[[	.	.	.	.
=238	=238	=238	=238	=238	=238	=238
4FF 4FFF'/	8.dL 8.B-^\	.	4r	4r	.	.
.	16cJk 16A-\	.	.	.	.	.
4r	4c 4A-'\	.	4ee- 4a-'\	4aaa- 4eee- 4aa-'\	.	.
4FF 4FFF'^>/	4c 4A-'^\	.	4ee- 4a-'\	4aaa- 4eee- 4aa-'\	.	.
=239	=239	=239	=239	=239	=239	=239
8.D^>/L	8.d^\L	sf	4r	4r	.	.
16C/Jk	16c\Jk	.	.	.	.	.
4C'/	4c'\	.	4r	4r	.	.
4FF 4FFF'/	4e- 4A-'\	sf	4ee- 4a-'\	4aaa- 4eee- 4aa-'\	.	sf
=240	=240	=240	=240	=240	=240	=240
8.D^>/L	8.d^\L	sf	4r	4r	.	.
16C/Jk	16c\Jk	.	.	.	.	.
4C`/	4c`\	.	4r	4r	.	.
4FF 4FFF'/	4e- 4A-'\	sf	4ee- 4a-'\	4aaa- 4eee- 4aa-'\	.	sf
=241	=241	=241	=241	=241	=241	=241
8.D^>/L	8.d^\L	sf	4r	4r	.	.
16C/Jk	16c\Jk	.	.	.	.	.
4C`/	4c`\	.	4r	4r	.	.
4FF#X 4FFF#X'/	4e- 4An'\	sf	4ee- 4an'\	4aaan 4eee- 4aan'\	.	.
=242	=242	=242	=242	=242	=242	=242
8.D^>/L	8.d^\L	sf	4r	4r	.	.
16C/Jk	16c\Jk	.	.	.	.	.
4C`/	4c`\	.	4r	4r	.	.
4FF#X 4FFF#X'/	4e- 4An'\	sf	4ee- 4an'\	4aaan 4eee- 4aan'\	.	sf
*	*	*	*	*X8va	*	*
!LO:LB:g=original	!	!	!LO:LB:g=original	!	!	!
=243||	=243||	=243||	=243||	=243||	=243||	=243||
*k[bnenanf#]	*k[bnenanf#]	*	*k[bnenanf#]	*k[bnenanf#]	*	*
4.GG 4.GGG^/	4.e 4.c 4.G^\	sf	4.ee 4.cc^\	4.ggg 4.gg^\	.	sf
!	!	!	!	!LO:TX:b:t=meno	!	!
8r	8r	.	8r	(8gg\L	.	f
4r	4r	.	4r	8ee\	.	.
.	.	.	.	8cc\J	.	.
=244	=244	=244	=244	=244	=244	=244
!	!LO:TX:b:t=meno	!	!	!	!	!
2.r	(4.f#X 4.e-X^\	f	2.r	8a'\L)	.	<
.	.	.	.	16r	.	.
.	.	.	.	16cc'\Jk	.	.
.	.	.	.	4cc'\	.	.
.	8d\L	.	.	.	.	.
.	8fn\	.	.	4dd 4b'\	.	[[
.	8G\J)	.	.	.	.	.
=245	=245	=245	=245	=245	=245	=245
2.GG 2.GGG^>/	2.en 2.c^\	.	2.r	(4.ee 4.cc^\	.	.
.	.	.	.	8gg\L	.	.
.	.	.	.	8ee\	.	.
.	.	.	.	8cc\J	.	.
=246	=246	=246	=246	=246	=246	=246
2.r	(4.f#X 4.e-X\	.	2.r	8a'\L)	.	<
.	.	.	.	16r	.	.
.	.	.	.	16cc'\Jk	.	.
.	.	.	.	4cc'\	.	.
.	8d\L	.	.	.	.	.
.	8fn\	.	.	4dd 4b'\	.	[[
.	8G\J)	.	.	.	.	.
=247	=247	=247	=247	=247	=247	=247
2.GG 2.GGG^>/	2.en 2.c^\	.	4r	4.ee 4.cc^\	.	.
.	.	.	8r	.	.	.
.	.	.	(8gg\L	(8ggg\L	.	.
.	.	.	8ee\	8eee\	.	.
.	.	.	8cc\J	8ccc\J	.	.
=248	=248	=248	=248	=248	=248	=248
(4.F#X^\	(4.f#X^\	.	8a'\L)	8aa\L)	.	<
.	.	.	16r	16r	.	.
.	.	.	16cc'\Jk	16ccc'\Jk	.	.
.	.	.	4cc'\	4ccc'\	.	.
8D/L	8d\L	.	.	.	.	.
8Fn/	8fn\	.	4dd 4b'\	4ddd 4bb'\	.	.
8GG/J)	8G\J)	.	.	.	.	.
=249	=249	=249	=249	=249	=249	=249
*	*	*	*	*8va	*	*
(4.C^>/	(4.c^\	.	8eeL 8cc'\	8eeeL 8ccc'\	.	.
.	.	.	16r	16r	.	.
.	.	.	16ggJk 16ee'\	16gggJk 16eee'\	.	.
.	.	.	4gg 4ee'\	4ggg 4eee'\	.	.
8GG/L	8G\L	.	.	.	.	.
8FF#X/	8F#X\	.	4aa 4ff#'\	4aaa 4fff#'\	.	[
8EE/J	8E\J	.	.	.	.	.
!	!	!	!LO:LB:g=original	!	!	!
=250	=250	=250	=250	=250	=250	=250
8DD#X/L	8D#X\L	<	2.bb 2.gg^\	2.bbb 2.ggg^\	.	sf
8GG/	8G\	.	.	.	.	.
8AA/	8A\	.	.	.	.	.
8BB/	8B\	.	.	.	.	.
8C#X/J)	8c#X\	.	.	.	.	.
8r	8d#X\J	[	.	.	.	.
*	*clefG2	*	*	*	*	*
!LO:LB:g=original	!	!	!	!	!	!
=251	=251	=251	=251	=251	=251	=251
*	*	*	*^	*	*	*
[2.BB [2.BBB/	4.e^/)	fp	[2.bb [2.gg^\	8dd\	[2.bbb [2.ggg^\	.	fp
.	.	.	.	8r	.	.	.
.	.	.	.	4r	.	.	.
.	(8b/L	.	.	.	.	.	.
.	8g/	.	.	4r	.	.	.
.	8e/J	.	.	.	.	.	.
*	*	*	*v	*v	*	*	*
=252	=252	=252	=252	=252	=252	=252
!	!	!	!	!LO:TX:b:i:t=espressivo	!	!
2.BB] 2.BBB/]	8B/L)	<	(4bb] 4gg\]	4bbb] 4ggg\]	.	.
.	16r	.	.	.	.	.
.	16d#X/Jk	.	.	.	.	.
.	(4d#/	.	4aa 4ccn\	(4aaa 4cccn\	.	.
.	8e/L	.	8ggL 8b\	8gggL 8bb\	.	.
.	8f#/J	[[	8ff#J 8a\	8fff#J 8aa\	.	.
=253	=253	=253	=253	=253	=253	=253
[2.BB [2.BBB/	4.e/)	.	4.gg 4.b\)	2.ggg 2.bb\	.	.
.	8r	.	(8b^>/L	.	.	.
.	4r	.	8g/	.	.	.
.	.	.	8e/J	.	.	.
=254	=254	=254	=254	=254	=254	=254
2.BB] 2.BBB/]	(8.B/L	.	4b 4g/)	4bb 4gg/)	.	<
.	16c#X/Jk)	.	.	.	.	.
.	4c#/	.	(4gg 4b\	(4ggg 4bb\	.	.
.	4d#X/	.	4ff# 4a\	4fff# 4aa\	.	[
=255	=255	=255	=255	=255	=255	=255
[2.BB [2.BBB/	4.e 4.B/	.	2ee 2g\)	2eee 2gg\)	.	.
*	*clefF4	*	*	*	*	*
.	(8G\L	.	.	.	.	.
*	*	*	*	*X8va	*	*
!	!	!	!LO:TUP:a:problem=klamra łukowa	!LO:TUP:a:problem=klamra łukowa	!	!
.	8F#\	.	(12ccL 12a\	(12cccL 12aa\	.	.
.	.	.	12ddn\	12dddn\	.	.
.	8D#X\J	.	.	.	.	.
.	.	.	12cc\J	12ccc\J	.	.
=256	=256	=256	=256	=256	=256	=256
2.BB] 2.BBB/]	8.E\L)	<	4b 4g/	4bb 4gg\	.	<
.	(16G\Jk	.	.	.	.	.
.	4B\	.	4g 4e/	4gg 4ee\	.	.
.	4c\	[[	4a 4f#/	4aa 4ff#\	.	.
=257	=257	=257	=257	=257	=257	=257
[2.BB [2.BBB/	8.dn\L)	>	4b 4g/)	4bb 4gg\)	.	.
.	(16c\Jk	.	.	.	.	.
*	*	*	*	*8va	*	*
.	4B\)	.	(4gg 4b\	[2bbb [2bb^\	.	[
.	[4B\	.	4aa 4cc\	.	.	.
=258	=258	=258	=258	=258	=258	=258
2.BB] 2.BBB/]	8.B\L]	.	2ff# 2a\)	2.bbb] 2.bb\]	.	.
.	16c\Jk	.	.	.	.	.
.	2B\	]]	.	.	.	.
.	.	.	4b 4a/	.	.	.
!LO:PB:g=original	!	!	!LO:PB:g=original	!	!	!
=259	=259	=259	=259	=259	=259	=259
[2.BB [2.BBB/	[2.B^\	.	4.ee 4.g^\	[2.bbb [2.bb^\	.	.
.	.	.	(8b/L	.	.	.
.	.	.	8g/	.	.	.
.	.	.	8e/J	.	.	.
=260	=260	=260	=260	=260	=260	=260
2.BB] 2.BBB/]	8.B\L]	<	4b\	4bbb] 4bb\]	.	.
.	16d#X\Jk	.	.	.	.	.
*	*	*	*	*X8va	*	*
.	(4d#\	.	4cc\	(4aa\	.	.
.	8e\L	.	8b/L	8gg\L	.	.
.	8f#\J	.	8a/J	8ff#\J	.	.
=261	=261	=261	=261	=261	=261	=261
[2.BB [2.BBB/	4.e^\)	.	4.b\)	2.gg\)	.	.
.	8r	[	(<8b/L	.	.	.
.	4r	.	8g/	.	.	.
.	.	.	8e/J	.	.	.
=262	=262	=262	=262	=262	=262	=262
2.BB] 2.BBB/]	8.B\L	.	4g/	(4b\	.	<
.	16c#X\Jk	.	.	.	.	.
.	(4c#\	.	4b\	4gg\	.	[
.	4d#X\)	.	4a/	4ff#\	.	.
=263	=263	=263	=263	=263	=263	=263
[2.BB [2.BBB/	4.e 4.B^\	.	2g/	2ee\)	.	.
.	(8G\L	<	.	.	.	.
!	!	!	!	!LO:TUP:a:problem=klamra łukowa	!	!
.	8F#\	.	4a/	(12cc\L	.	.
.	.	.	.	12ddn\	.	.
.	8D#X\J	.	.	.	.	.
.	.	.	.	12cc\J	.	.
=264	=264	=264	=264	=264	=264	=264
2.BB] 2.BBB/]	8.E\L)	.	4g/)	4b\)	.	.
.	(16G\Jk	.	.	.	.	.
.	4B\	.	(4g 4e/	4r	.	.
.	4c\	.	4a 4f#/	4r	.	.
=265	=265	=265	=265	=265	=265	=265
[2.BB 2.BBB/	8.dn\L)	.	4b 4g/)	4r	.	.
.	16c\Jk	[	.	.	.	.
.	4B\	.	(4g/	[2bb [2b^\	.	.
.	(4c\	.	4a/	.	.	.
!	!	!	!LO:LB:g=original	!	!	!
=266	=266	=266	=266	=266	=266	=266
8.BB/L]	2A\	.	2f#/)	2.bb] 2.b\]	.	.
16C/Jk	.	.	.	.	.	.
[2BB/	.	.	.	.	.	.
.	4B 4A\	.	4r	.	.	.
!LO:LB:g=original	!	!	!	!	!	!
=267	=267	=267	=267	=267	=267	=267
*^	*	*	*	*	*	*
*	*	*	*^	*	*	*	*
4BB/]	[2.EE\	4e 4G\	>	>	4r	2.r	.	>
*	*	*	*v	*v	*	*	*	*
[2BB/	.	4B\	.	(4g/	.	.	.
.	.	4c\	.	4a/	.	.	.
=268	=268	=268	=268	=268	=268	=268	=268
8.BB/L]	2.EE\_	2A\)	]	2f#/)	2.r	.	.
16C/Jk	.	.	.	.	.	.	.
[2BB/	.	.	.	.	.	.	.
!	!	!LO:TUP:a:problem=klamra łukowa	!	!	!	!	!
.	.	(12cL 12A\	.	4r	.	.	.
.	.	12d\	.	.	.	.	.
.	.	12c\J	.	.	.	.	.
=269	=269	=269	=269	=269	=269	=269	=269
4BB/]	4EE\]	4B 4G\)	.	4r	2.r	.	.
[2BB/	[2EE\	(4B\	.	(4g/	.	.	.
.	.	4c\	.	4a/	.	.	.
=270	=270	=270	=270	=270	=270	=270	=270
8.BB/L]	2.EE\_	2A\)	.	2f#/)	2.r	.	.
16C/Jk	.	.	.	.	.	.	.
[2BB/	.	.	.	.	.	.	.
!	!	!LO:TUP:a:problem=klamra łukowa	!	!	!	!	!
.	.	(12cL 12A\	.	4r	.	.	.
.	.	12d\	.	.	.	.	.
.	.	12c\J	.	.	.	.	.
=271	=271	=271	=271	=271	=271	=271	=271
4BB/]	4EE\]	4B 4G\)	.	4r	2.r	.	.
2BB [2EE/	2ryy	(4B\	.	(4g/	.	.	.
.	.	4c\	.	4a/	.	.	.
*v	*v	*	*	*	*	*	*
=272	=272	=272	=272	=272	=272	=272
(2AA#X 2EE^>/]	2A#X 2G^\)	.	[2.e^^/)	2.r	.	.
4BB 4BBB/)	4B\	.	.	.	.	.
=273	=273	=273	=273	=273	=273	=273
2.BB [2.EE/	4B 4G\	.	4e/]	2.r	.	.
.	(4B\	.	(4g/	.	.	.
.	4c\	.	4a/	.	.	.
=274	=274	=274	=274	=274	=274	=274
2AA#X 2EE^>/]	2A#X 2G^\)	.	2.e^^/)	2.r	.	.
4BB 4BBB/	4B\	.	.	.	.	.
!LO:LB:g=original	!	!	!	!	!	!
=275	=275	=275	=275	=275	=275	=275
!LO:TX:a:i:t=ten.	!LO:TX:a:i:t=ten.	!	!	!LO:TX:b:B:t=4	!	!
4.EE^/	4.G^\	.	0.r	0.r	.	.
(8BB/L	(8B\L	.	.	.	.	.
8GG/	8G\	.	.	.	.	.
8EE/J	8E\J	.	.	.	.	.
=276	=276	=276	=276	=276	=276	=276
8BBB'/L)	8BB'/L)	.	.	.	.	.
16r	16r	.	.	.	.	.
16CC#X'/Jk	16C#X/Jk	.	.	.	.	.
4CC#'/	4C#/	.	.	.	.	.
4DD#X'/	4D#X'\	.	.	.	.	.
=277	=277	=277	=277	=277	=277	=277
!LO:TX:a:i:t=ten.	!LO:TX:a:i:t=ten.	!	!	!	!	!
4.EE^/	4.E^\	<	.	.	.	.
(8BB/L	(8B\L	.	.	.	.	.
8GG/	8G\	.	.	.	.	.
8EE/J	8E\J	.	.	.	.	.
=278	=278	=278	=278	=278	=278	=278
*	*	*^	*	*	*	*
8BBB'/L)	8BB'/L)	.	<	.	.	.	.
*	*	*v	*v	*	*	*	*
16r	16r	.	.	.	.	.
!	!LO:TX:b:t=molto	!	!	!	!	!
16CCn'/Jk	16Cn'/Jk	.	.	.	.	.
4CC'/	4C'^>/	.	.	.	.	.
4CC#X'/	4C#X'^>/	[[	.	.	.	.
!	!	!	!LO:LB:g=original	!	!	!
=279	=279	=279	=279	=279	=279	=279
4Dn 4DDn'/	4cn 4A'\	f	4f# 4e'/	4ee`\	.	f
2D 2DD^>/	2c 2A^>\	sf	4f#^>/	(8dd^>/L	.	sf
.	.	.	.	8ccn/	.	.
.	.	.	4r	8e/	.	.
!	!	!	!	!LO:TX:a:i:t=m.g.	!	!
.	.	.	.	8f#/J	.	.
=280	=280	=280	=280	=280	=280	=280
4D 4GG^>/	4d 4B^>\	.	4r	8g'/L)	.	.
.	.	.	.	16r	.	.
.	.	.	.	(16a/Jk	.	.
4r	4r	.	4r	8b'\)	.	.
.	.	.	.	8r	.	.
4C#X 4CC#X'/	4G'\	p	4e 4B'/	4g'/	.	p
=281	=281	=281	=281	=281	=281	=281
4r	4r	.	4r	8a/L	.	<
.	.	.	.	16r	.	.
.	.	.	.	(16b/Jk	.	.
4r	4r	.	4r	8cc'\)	.	.
.	.	.	.	8r	.	.
!	!LO:TX:b:BI:t=cresc._:problem=dynamics with extention lines	!	!	!	!	!
4Cn 4CCn'/	4A'\	<	4f# 4d'/	4a'/	.	.
=282	=282	=282	=282	=282	=282	=282
4r	4r	.	4r	8b'\L	.	.
.	.	.	.	16r	.	.
.	.	.	.	(16cc\Jk	.	.
4r	4r	.	4r	8dd'\)	.	.
.	.	.	.	8r	.	.
4BB 4BBB'/	4B 4G'\	.	4g 4d'/	4b'\	.	.
!LO:LB:g=original	!	!	!	!	!	!
=283	=283	=283	=283	=283	=283	=283
4r	4r	.	4r	8cc#X'\L	.	<
.	.	.	.	16r	.	.
.	.	.	.	(16dd\Jk	.	.
4r	4r	.	4r	8ee'\)	.	.
.	.	.	.	8r	.	.
4AA 4AAA'/	4e 4c#X 4G'\	[[	4g'/	4gg 4cc#'\	.	[[
!	!	!	!LO:LB:g=original	!	!	!
=284	=284	=284	=284	=284	=284	=284
(2BB 2BBB/	4r	f	2g^/	(4.gg 4.dd\	.	f <
.	(4d 4D\	<	.	.	.	.
.	.	.	.	8dd\L	.	.
4AA#X 4AAA#X/)	4c#X 4G\)	.	8f#'/L	8ff# 8cc#X 8g'\)	.	.
.	.	.	16r	16r	.	.
.	.	.	16e/Jk	16ee\Jk	.	.
=285	=285	=285	=285	=285	=285	=285
(2BB 2BBB/	4r	.	4e^/	(4.ee 4.g^\	.	.
.	(4d 4D\	.	4r	.	.	.
.	.	.	.	8dd\L	.	.
4AA#X 4AAA#X/)	4c#X 4G\)	.	8f#'/L	8ff# 8cc#X 8g'\)	.	.
.	.	.	16r	16r	.	.
.	.	.	16e/Jk	16ee\Jk	.	.
=286	=286	=286	=286	=286	=286	=286
(2BB 2BBB/	4r	.	4e^/	(4.ee 4.g^\	.	.
.	(4d 4D\	.	4r	.	.	.
.	.	.	.	8dd\L	.	.
4AAn 4AAAn/)	4c#X 4G\)	[	8f#'/L	8ff# 8cc#X 8g'\)	.	.
.	.	.	16r	16r	.	.
.	.	.	16e/Jk	16ee\Jk	.	[[
=287	=287	=287	=287	=287	=287	=287
4D 4DD'/	4c 4A'\	.	4e'/	4ee`\	.	.
2D 2DD^/	2c 2A^\	sf	4f#'^/	(8dd^/L	.	sf
.	.	.	.	8ccn/	.	.
.	.	.	4r	8e/	.	.
!	!	!	!	!LO:TX:a:i:t=m.g.	!	!
.	.	.	.	8f#/J	.	.
=288	=288	=288	=288	=288	=288	=288
4D 4GG^/	4d 4B^\	.	4r	8g/L)	.	.
.	.	.	.	16r	.	.
.	.	.	.	(16a'/Jk	.	.
4r	4r	.	4r	8b'\)	.	.
.	.	.	.	8r	.	.
4C#X 4CC#X'/	4G'\	p	4e 4B'/	4g'/	.	p
!	!	!	!LO:LB:g=original	!	!	!
=289	=289	=289	=289	=289	=289	=289
!	!	!	!	!LO:TX:b:BI:t=poco a poco cresc. molto:problem=dynamics with extention lines	!	!
4r	4r	.	4r	8a'/L	.	<
.	.	.	.	16r	.	.
.	.	.	.	(16b/Jk	.	.
4r	4r	<	4r	8ccn'\)	.	.
.	.	.	.	8r	.	.
!	!LO:TX:b:BI:t=poco a poco cresc. molto:problem=dynamics with extention lines	!	!	!	!	!
4Cn 4CCn'/	4A'\	.	4f# 4d'/	4a'/	.	.
=290	=290	=290	=290	=290	=290	=290
4r	4r	.	4r	8b'\L	.	.
.	.	.	.	16r	.	.
.	.	.	.	(16ccn\Jk	.	.
4r	4r	.	4r	8dd'\)	.	.
.	.	.	.	8r	.	.
4BB 4BBB'/	4B 4G'\	.	4g 4d'/	4b'\	.	.
!LO:LB:g=original	!	!	!	!	!	!
=291	=291	=291	=291	=291	=291	=291
*	*	*^	*	*	*	*
4r	4r	.	<	4r	8cc#X'\L	.	.
*	*	*v	*v	*	*	*	*
.	.	.	.	16r	.	.
.	.	.	.	(16dd\Jk	.	.
4r	4r	.	4r	8ee'\)	.	.
.	.	.	.	8r	.	[
4BB-X 4BBB-X'/	4B-X 4G'\	.	4e 4c#X'/	4cc#'\	.	.
=292	=292	=292	=292	=292	=292	=292
!	!LO:TX:b:t=molto	!	!	!	!	!
4r	4r	.	4r	8dd'\L	.	.
.	.	.	.	16r	.	.
.	.	.	.	(16ee\Jk	.	.
4r	4r	.	4r	8ffn'\)	.	.
.	.	.	.	8r	.	.
4AA 4AAA'/	4A 4Fn'\	[	4fn 4d'/	4dd'\	.	.
=293	=293	=293	=293	=293	=293	=293
4r	4r	.	4r	8dd'\L	.	.
.	.	.	.	16r	.	.
.	.	.	.	(16ee\Jk	.	.
4r	4r	.	4r	8ffn'\)	.	.
.	.	.	.	8r	.	.
4AA-X 4AAA-X'/	4c 4A-X'\	.	4fn 4d'/	4dd'\	.	.
!	!	!	!LO:LB:g=original	!	!	!
=294	=294	=294	=294	=294	=294	=294
4r	4r	.	4r	8dd'\L	.	.
.	.	.	.	16r	.	.
.	.	.	.	(16ee\Jk	.	.
4r	4r	.	4r	8ff#X'\)	.	.
.	.	.	.	8r	.	.
4AA-X 4AAA-X'/	4c 4A-X'\	.	4f#X 4d'/	4dd'\	.	.
=295	=295	=295	=295	=295	=295	=295
!	!LO:N:n=1:vis=2	!	!	!	!	!
2.GG 2.GGG^/	2.c 2.G^\	sf	4.g 4.e^/	4.ee^\	.	sf
.	.	.	8r	(8gg\L	.	.
.	.	.	4r	8ee\	.	.
.	.	.	.	8cc\J	.	.
=296	=296	=296	=296	=296	=296	=296
2.r	(4.f#^\	.	4r	8a'\L)	.	.
.	.	.	.	16r	.	.
.	.	.	.	16cc\Jk	.	<
.	.	.	4r	4cc'\	.	.
.	8d\L	.	.	.	.	.
.	8fn\	.	4b'\	4dd'\	.	[[
.	8G\J)	.	.	.	.	.
=297	=297	=297	=297	=297	=297	=297
2.E 2.EE^/	2.e 2.c^\	sf	4.a^/	4.cc^\	.	sf
.	.	.	8r	(8ee\L	.	.
.	.	.	4r	8cc\	.	.
.	.	.	.	8a\J	.	.
=298	=298	=298	=298	=298	=298	=298
2.r	(4.d#X^\	.	4r	8f#'/L)	.	.
.	.	.	.	16r	.	.
.	.	.	.	16a/Jk	.	.
.	.	.	4r	4a`/	.	<
.	8B\L	.	.	.	.	.
.	8dn\	.	4g#X'/	4b`\	.	[[
.	8E\J)	.	.	.	.	.
!LO:PB:g=original	!	!	!LO:PB:g=original	!	!	!
=299	=299	=299	=299	=299	=299	=299
4.C 4.CC^/	(4.A^\	sf	4.e^/	(4.a^/	.	sf
8r	8B\L	.	8r	8b/L	.	.
4r	8A\	.	4r	8a/	.	.
.	8E\J)	.	.	8e/J)	.	.
=300	=300	=300	=300	=300	=300	=300
(4.CC/	(4.C/	.	(8.A^>/L	(8.a^>/L	.	.
.	.	.	16B/Jk	16b/Jk	.	.
.	.	.	8A'/)	8a'/)	.	.
8AAA/L	8AA/L	.	8r	8r	.	.
8EE/	8E/	.	4A 4G'/	4a 4g'/	.	.
8DD/J	8D/J	.	.	.	.	.
=301	=301	=301	=301	=301	=301	=301
8CC#X'/)	8C#X'/)	.	4r	4r	.	.
8r	8r	.	.	.	.	.
4C#X 4CC#'/	(8AL 8G\	.	4r	(8aL 8g\	.	<
.	8B\J	.	.	8b\	.	.
4AA 4AAA'/	4A 4G\)	.	(8c#X/L	8cc#X\	.	.
.	.	.	8e/J	8ee\J	.	.
=302	=302	=302	=302	=302	=302	=302
4D 4DD'/	4A 4F#'\	.	8d/L	8dd\L	.	.
.	.	.	8f#/	8ff#\	.	.
4r	4r	.	8a/	8aa\	.	.
.	.	.	8b/	8bb\	.	.
4D 4DD'/	4f# 4cn 4A'\	.	8ccn/	8cccn\	.	.
.	.	.	8dd/J)	8ddd\J)	.	[[
=303	=303	=303	=303	=303	=303	=303
2.GG 2.GGG/	2.e 2.c 2.G\	sf	(4.ee 4.cc^\	(4.eee 4.ccc^\	.	ff
.	.	.	8gg\L	8ggg\L	.	.
.	.	.	8ee\	8eee\	.	.
.	.	.	8cc\J	8ccc\J	.	.
=304	=304	=304	=304	=304	=304	=304
(4.F#X^\	(4.f#X^\	sf	8a'\L)	8aa'\L)	.	<
.	.	.	16r	16r	.	.
.	.	.	16cc'\Jk	16ccc'\Jk	.	.
.	.	.	4cc'\	4ccc'\	.	.
8D/L	8d\L	.	.	.	.	.
8Fn/	8fn\	.	4dd 4b'\	4ddd 4bb'\	.	[[
8GG/J)	8G\J)	.	.	.	.	.
!	!	!	!LO:LB:g=original	!	!	!
=305	=305	=305	=305	=305	=305	=305
2.E 2.EE^>/	2.e 2.c^\	sf	(4.cc 4.a^\	(4.ccc 4.aa^\	.	sf
.	.	.	8ee\L	8eee\L	.	.
.	.	.	8cc\	8ccc\	.	.
.	.	.	8a\J	8aa\J	.	.
=306	=306	=306	=306	=306	=306	=306
(4.D#X^\	(4.d#X^\	.	8f#X'/L)	8ff#X'\L)	.	<
.	.	.	16r	16r	.	.
.	.	.	16a'/Jk	16aa'\Jk	.	.
.	.	.	4a'/	4aa'\	.	.
8BB/L	8B\L	.	.	.	.	.
8Dn/	8dn\	.	4b 4g#X'/	4bb 4gg#X'\	.	[[
8EE/J)	8E\J)	.	.	.	.	.
!LO:LB:g=original	!	!	!	!	!	!
=307	=307	=307	=307	=307	=307	=307
(4.C 4.CC^>/	(4.c 4.A^\	sf	(4.a 4.e^>/	(4.aa 4.ee^\	.	sf
8EE/L	8E\L	.	8b/L	8bb\L	.	.
8AA/	8A\	.	8a/	8aa\	.	.
8BB/J)	8B\J)	.	8e/J	8ee\J	.	.
=308	=308	=308	=308	=308	=308	=308
(4.C^>/	(4.c^\	sf	8.a'/L)	8.aa'\L)	.	.
.	.	.	(16b/Jk	(16bb\Jk	.	.
.	.	.	4a'/)	4aa'\)	.	.
8AA/L	8A\L	.	.	.	.	.
8E/	8e\	.	4a 4g'/	4aa 4gg'\	.	sf
8D/J	8d\J	.	.	.	.	.
=309	=309	=309	=309	=309	=309	=309
4C#X/)	4c#X\)	.	4r	4r	.	.
4C# 4CC#X'/	(8AL 8G\	.	4r	(8aL 8g\	.	<
.	8B\J	.	.	8b\	.	.
4AA 4AAA'/	4A 4G'\)	.	(8c#X/L	8cc#X\	.	.
.	.	.	8e/J	8ee\J	.	.
=310	=310	=310	=310	=310	=310	=310
(8Cn^>/L	(8cn^\L	sf	8d/L	8dd\L	.	.
8BB/	8B\	.	8f#/	8ff#\	.	.
8AA/	8A\	.	8a/	8aa\	.	.
8GG/	8G\	.	8b/	8bb\	.	.
8FF#/J)	8F#\J)	.	8ccn/	8cccn\	.	.
8r	8r	.	8dd/J	8ddd\J	.	[[
!	!	!	!LO:LB:g=original	!	!	!
=311	=311	=311	=311	=311	=311	=311
!	!LO:TX:a:B:t=Più animato.	!	!	!LO:TX:a:B:t=Più animato.	!	!
8GG 8GGG'/	8e 8c 8F# 8E'\	.	8ee'\)	8eee'\)	.	.
8r	8r	.	8r	8r	.	.
2GG 2GGG^>/	2d 2c 2F# 2D^\	.	(8dd^>/L	(8ddd^\L	.	.
.	.	.	8cc/	8ccc\	.	.
.	.	.	8e/	8ee\	.	.
.	.	.	8f#/J	8ff#\J	.	.
=312	=312	=312	=312	=312	=312	=312
2GG 2GGG^>/	2d 2B 2G 2D^\	.	8g^>/L)	8gg^\L)	.	.
.	.	.	16r	16r	.	.
.	.	.	(16a/Jk	(16aa\Jk	.	.
.	.	.	8b'\)	8bb'\)	.	.
.	.	.	8r	8r	.	.
4GG 4GGG/	4d 4B 4G 4D\	.	4g'/	4gg'\	.	.
=313	=313	=313	=313	=313	=313	=313
4GG 4GGG'/	4d 4c#X 4G 4D'\	.	4r	4r	.	.
2GG 2GGG^>/	2d 2cn 2F# 2D^\	.	8r	(8dd\L	.	<
.	.	.	(8e/L	8ee\	.	.
.	.	.	8f#/	8ff#\	.	.
.	.	.	8a/J	8aa\J	.	.
!LO:LB:g=original	!	!	!	!	!	!
=314	=314	=314	=314	=314	=314	=314
2GG 2GGG^>/	2d 2B 2G 2D^\	.	8g/L	8gg\L	.	.
.	.	.	8a/	8aa\	.	.
.	.	.	8b/	8bb\	.	.
.	.	.	8cc/J	8ccc\J	.	.
4GG 4GGG/	4d 4B-X 4G 4D\	.	4dd'\)	4ddd'\)	.	[[
=315	=315	=315	=315	=315	=315	=315
8GG 8GGG'/	8e 8c#X 8A 8E'\	.	8ee'\	8eee'\	.	.
8r	8r	.	8r	8r	.	.
2GG 2GGG^>/	2d 2cn 2F# 2D^\	.	(8dd^>/L	(8ddd^\L	.	.
.	.	.	8ccn/	8cccn\	.	.
.	.	.	8e/	8ee\	.	.
.	.	.	8f#/J	8ff#\J	.	.
=316	=316	=316	=316	=316	=316	=316
2GG 2GGG^>/	2d 2B 2G 2D^\	.	8g/L)	8gg\L)	.	.
.	.	.	16r	16r	.	.
.	.	.	(16a/Jk	(16aa\Jk	.	.
.	.	.	8b'\)	8bb'\)	.	.
.	.	.	8r	8r	.	.
4GG 4GGG/	4d 4B 4G 4D\	.	4g'/	4gg'\	.	.
!	!	!	!LO:LB:g=original	!	!	!
=317	=317	=317	=317	=317	=317	=317
4GG 4GGG'/	4d 4c#X 4G 4D'\	.	4r	4r	.	.
2GG 2GGG^>/	2d 2cn 2F# 2D^\	.	8r	(8dd\L	.	.
.	.	.	(8e/L	8ee\	.	.
.	.	.	8f#/	8ff#\	.	.
.	.	.	8a/J	8aa\J	.	.
=318	=318	=318	=318	=318	=318	=318
2GG 2GGG^>/	2d 2B 2G 2D^\	.	8g/L	8gg\L	.	.
.	.	.	8a/	8aa\	.	.
.	.	.	8b/	8bb\	.	.
.	.	.	8cc/J	8ccc\J	.	.
4GG 4GGG/	4d 4B 4G 4D\	.	4dd'\)	4ddd'\)	.	.
=319	=319	=319	=319	=319	=319	=319
4GG 4GGG'/	4c#X 4G 4D'\	>	4r	4r	.	>
2GG 2GGG^>/	2cn 2F# 2D^\	.	(8d/L	(8dd\L	.	<
.	.	.	8e/	8ee\	.	.
.	.	.	8f#/	8ff#\	.	.
.	.	.	8a/J	8aa\J	.	.
=320	=320	=320	=320	=320	=320	=320
2GG 2GGG^>/	2B 2G 2D^\	.	8g/L	8gg\L	.	.
.	.	.	8a/	8aa\	.	.
.	.	.	8b/	8bb\	.	.
.	.	.	8cc/J	8ccc\J	.	.
4GG 4GGG/	4d 4B-X 4G 4D\	.	4dd'\)	4ddd'\)	.	[[
=321	=321	=321	=321	=321	=321	=321
4GG 4GGG'/	4c#X 4G 4D'\	.	4r	4r	.	.
*	*	*	*	*8va	*	*
2GG 2GGG/	2cn 2G 2D^\	.	(8d/L	(8ddd\L	.	.
.	.	.	8e/	8eee\	.	.
.	.	.	8f#/	8fff#\	.	.
.	.	.	8a/J	8aaa\J	.	.
=322	=322	=322	=322	=322	=322	=322
2GG 2GGG/	2B 2G 2D\	.	8g/L	8ggg\L	.	.
.	.	.	8a/	8aaa\	.	.
.	.	.	8b/	8bbb\	.	.
.	.	.	8cc/J	8cccc\J	.	.
4GG 4GGG/	4B 4G 4D\	.	4dd'\)	4dddd'\)	.	.
*	*	*	*	*X8va	*	*
!LO:LB:g=original	!	!	!LO:LB:g=original	!	!	!
=323	=323	=323	=323	=323	=323	=323
(4DD/	(4D\	p	2.r	4r	.	.
8C'/L)	8c'\L)	.	.	8d'/L	.	p
16r	16r	.	.	16r	.	.
(16BB/K	(16B\K	.	.	(16e/Jk	.	.
8AA'/)	8A'\)	.	.	8f#'/L)	.	.
16r	16r	.	.	16r	.	.
(16GG/Jk	(16G\Jk	.	.	(16g/Jk	.	.
=324	=324	=324	=324	=324	=324	=324
!	!LO:TX:b:BI:t=cresc. molto:problem=dynamics with extention lines	!	!	!LO:TX:b:BI:t=cresc. molto:problem=dynamics with extention lines	!	!
8AA'/L)	8A'\L)	<	8.r	8a'/L)	.	<
16r	16r	.	.	16r	.	.
(16GG/K	(16G\K	.	(16B/	(16b/Jk	.	.
8FF#'/)	8F#'\)	.	8c'/L)	8cc'\L)	.	.
16r	16r	.	16r	16r	.	.
(16FFn/K	(16Fn\K	.	(16B/Jk	(16b\Jk	.	.
8EE'/)	8E'\)	.	8c'/L)	8cc'\L)	.	.
16r	16r	.	16r	16r	.	.
(16EE-X/Jk	(16E-X\Jk	.	(16c#X/Jk	(16cc#X\Jk	.	.
=325	=325	=325	=325	=325	=325	=325
8DD'/L)	8D'\L)	.	8d'/L)	8dd'\L)	.	.
16r	16r	.	16r	16r	.	.
(16C#X/K	(16c#X\K	.	(16e/Jk	(16ee\Jk	.	.
8Cn'/)	8cn'\)	.	8f#'/L)	8ff#'\L)	.	.
16r	16r	.	16r	16r	.	.
(16BB/K	(16B\K	.	(16g/Jk	(16gg\Jk	.	.
8AA'/)	8A'\)	.	8a'/L)	8aa'\L)	.	.
16r	16r	.	16r	16r	.	.
(16GG/Jk	(16G\Jk	.	(16b/Jk	(16bb\Jk	.	.
=326	=326	=326	=326	=326	=326	=326
8FF#'/L)	8F#'/L)	.	8cc'\L)	8ccc'\L)	.	.
16r	16r	.	16r	16r	.	.
(16EE/K	(16E/K	.	(16dd\Jk	(16ddd\Jk	.	.
*	*	*	*	*8va	*	*
8DD'/)	8D'/)	.	8ee'\L)	8eee'\L)	.	.
16r	16r	.	16r	16r	.	.
(16CC/K	(16C/K	.	(16ff#\Jk	(16fff#\Jk	.	.
8BBB'/)	8BB'/)	.	8gg'\L)	8ggg'\L)	.	.
16r	16r	.	16r	16r	.	.
(16AAA/Jk	(16AA/Jk	.	(16aa\Jk	(16aaa\Jk	.	[[
!LO:LB:g=original	!	!	!LO:LB:g=original	!	!	!
=327	=327	=327	=327	=327	=327	=327
4GGG'/)	4GG'/)	sf	4bb'\)	4bbb'\)	.	sf
*	*	*	*	*X8va	*	*
4r	4r	.	4r	4r	.	.
4r	4r	.	4r	4r	.	.
=328	=328	=328	=328	=328	=328	=328
4D 4DD'/	4d 4A 4F#'\	sf	4dd 4a 4f#'/	4ddd 4aa 4ff#'\	.	sf
4r	4r	.	4r	4r	.	.
4r	4r	.	4r	4r	.	.
=329	=329	=329	=329	=329	=329	=329
4D 4GG'/	4d 4B 4G'\	sf	4b 4g'/	4bb 4gg 4dd'\	.	sf
4r	4r	.	4r	4r	.	.
4r	4r	.	4r	4r	.	.
=330	=330	=330	=330	=330	=330	=330
4D 4DD'/	4d 4A 4F#'\	sf	4dd 4a 4f#'/	4ddd 4aa 4ff#'\	.	sf
4r	4r	.	4r	4r	.	.
4r	4r	.	4r	4r	.	.
=331	=331	=331	=331	=331	=331	=331
*	*	*	*	*8va	*	*
4GG 4GGG'/	4d 4B 4G 4D'\	sf	4gg 4dd 4b 4g'\	4bbb 4ggg 4ddd 4bb'\	.	sf
*	*	*	*	*X8va	*	*
4r	4r	.	4r	4r	.	.
4r	4r	.	4r	4r	.	.
=332	=332	=332	=332	=332	=332	=332
!	!LO:TX:b:B:t=1	!	!	!LO:TX:b:B:t=1	!	!
2.r	2.r	.	2.r	2.r	.	.
=333	=333	=333	=333	=333	=333	=333
4GG 4GGG'/	4G'\	.	4g'/	4ggg 4gg'\	.	sf
4r	4r	.	4r	4r	.	.
4r	4r	.	4r	4r	.	.
=334	=334	=334	=334	=334	=334	=334
4r	4r	.	4r	4r	.	.
4r	4r	.	4r	4r	.	.
8.r	8.r	.	8.r	8.r	.	.
16GGG/	16GG/	.	16G/	16g/	.	.
=335	=335	=335	=335	=335	=335	=335
2.GGG;</	2.GG;/	.	2.G;/	2.g;/	.	sf
==	==	==	==	==	==	==
*-	*-	*-	*-	*-	*-	*-
!!!system-decoration: [(s1,s2)][(s3,s4)]
!!!RDF**kern: > = above
!!!RDF**kern: < = below
!!!RDF**dynam: > = dim.
!!!ENC: Andrzej Kubiczek
!!!END: 2022-01-31
!!!ENC: Leszek Kubiak
!!!END: 2022-02-09
!!!YEC: Copyright 2022 Narodowy Instytut Fryderyka Chopina (https://polishscores.org)
!!!YEM: License CC-BY-4.0 (https://creativecommons.org/licenses/by/4.0)
